%
(Header)
(Generated by gcodetools from Inkscape.)
(Using default header. To add your own header create file "header" in the output dir.)
M3
(Header end.)
G21 (All units in mm)

(Start cutting path id: path12254)
(Change tool to Lathe cutter)

G00 Z18.000000
G00 X140.608404 Y192.322015

G01 Z34.000000 F5000.000000(Penetrate)
G03 X140.077118 Y192.275933 Z34.000000 I-0.086784 J-2.085113 F5000.000000
G03 X139.320765 Y192.030973 Z34.000000 I0.860364 J-3.946683
G02 X138.952717 Y191.897596 Z34.000000 I-1.222743 J2.799607
G02 X138.756320 Y191.872223 Z34.000000 I-0.179350 J0.615460
G02 X138.567396 Y191.910467 Z34.000000 I0.014826 J0.559007
G02 X138.297709 Y192.048612 Z34.000000 I0.550467 J1.406933
G03 X138.120010 Y192.153385 Z34.000000 I-1.363095 J-2.108788
G03 X137.953751 Y192.216182 Z34.000000 I-0.322331 J-0.601909
G03 X137.772187 Y192.223945 Z34.000000 I-0.111191 J-0.473413
G03 X137.574515 Y192.163265 Z34.000000 I0.098414 J-0.672905
G03 X137.259988 Y191.949579 Z34.000000 I0.567668 J-1.173875
G03 X136.569098 Y191.281321 Z34.000000 I12.674132 J-13.794642
G03 X135.586844 Y190.121353 Z34.000000 I7.357960 J-7.226547
G03 X134.505348 Y188.450279 Z34.000000 I14.781288 J-10.751746
G02 X133.813927 Y187.329130 Z34.000000 I-17.484577 J10.009098
G02 X133.402917 Y186.809862 Z34.000000 I-3.280407 J2.174203
G02 X132.917992 Y186.411885 Z34.000000 I-1.767152 J1.658806
G02 X132.335765 Y186.121946 Z34.000000 I-1.805696 J2.896467
G03 X132.104808 Y185.978984 Z34.000000 I0.260940 J-0.679592
G03 X131.815417 Y185.672154 Z34.000000 I1.961610 J-2.140000
G03 X131.557805 Y185.322068 Z34.000000 I3.436171 J-2.798349
G03 X131.224515 Y184.790209 Z34.000000 I10.243793 J-6.789653
G03 X130.613732 Y183.673217 Z34.000000 I16.184232 J-9.575191
G03 X129.822223 Y181.994445 Z34.000000 I31.929365 J-16.080064
G03 X128.387472 Y178.400274 Z34.000000 I50.894569 J-22.399971
G03 X127.123473 Y174.383265 Z34.000000 I49.368195 J-17.741648
G02 X125.685061 Y169.500666 Z34.000000 I-112.741754 J30.560508
G02 X125.315487 Y168.694723 Z34.000000 I-3.480544 J1.108334
G02 X125.203616 Y168.522954 Z34.000000 I-3.401639 J2.093136
G02 X125.156737 Y168.465418 Z34.000000 I-0.379003 J0.260932
G03 X125.142301 Y168.440774 Z34.000000 I0.044356 J-0.042533
G01 X125.139098 Y168.438973 Z34.000000
G01 X125.127519 Y168.444327 Z34.000000
G02 X124.989167 Y168.562446 Z34.000000 I0.692908 J0.951685
G02 X124.867861 Y168.689825 Z34.000000 I2.407416 J2.414096
G02 X124.645209 Y168.941682 Z34.000000 I11.075444 J10.015491
G02 X124.211760 Y169.577146 Z34.000000 I2.556691 J2.209471
G02 X124.098403 Y169.947098 Z34.000000 I0.919786 J0.484174
G02 X124.158543 Y170.278605 Z34.000000 I0.586391 J0.064830
G02 X124.415904 Y170.564460 Z34.000000 I0.657514 J-0.333193
G03 X124.670406 Y170.757988 Z34.000000 I-1.138458 J1.761253
G03 X124.803959 Y170.917237 Z34.000000 I-0.472863 J0.532189
G03 X124.850834 Y171.017013 Z34.000000 I-0.419453 J0.257960
G03 X124.865695 Y171.128904 Z34.000000 I-0.275843 J0.093569
G03 X124.834321 Y171.236631 Z34.000000 I-0.256125 J-0.016161
G03 X124.768681 Y171.322932 Z34.000000 I-0.325333 J-0.179332
G03 X124.599234 Y171.431582 Z34.000000 I-0.347400 J-0.355336
G03 X124.327709 Y171.508140 Z34.000000 I-0.553376 J-1.442851
G03 X124.032614 Y171.548329 Z34.000000 I-0.565344 J-3.047669
G03 X123.578056 Y171.569876 Z34.000000 I-0.496950 J-5.678138
G02 X123.098213 Y171.596833 Z34.000000 I0.035951 J4.924064
G02 X122.643195 Y171.666890 Z34.000000 I0.504351 J4.788453
G02 X122.174609 Y171.792502 Z34.000000 I0.788685 J3.878934
G02 X121.999376 Y171.878557 Z34.000000 I0.233348 J0.696613
G01 X121.690695 Y172.081404 Z34.000000
G01 X121.964098 Y172.266612 Z34.000000
G03 X122.215579 Y172.446677 Z34.000000 I-1.765827 J2.731823
G03 X122.343334 Y172.610571 Z34.000000 I-0.271385 J0.343284
G03 X122.368240 Y172.726081 Z34.000000 I-0.258488 J0.116176
G03 X122.334529 Y172.848696 Z34.000000 I-0.237810 J0.000558
G03 X122.252098 Y172.939520 Z34.000000 I-0.267707 J-0.160149
G03 X122.149320 Y172.998626 Z34.000000 I-0.309453 J-0.419183
G03 X121.713769 Y173.105400 Z34.000000 I-0.533537 J-1.234669
G03 X120.420709 Y173.157376 Z34.000000 I-1.440003 J-19.713904
G02 X118.777284 Y173.339916 Z34.000000 I0.059694 J8.026685
G02 X117.995362 Y173.651265 Z34.000000 I0.543141 J2.501574
G02 X117.680397 Y173.910654 Z34.000000 I0.731608 J1.209283
G02 X117.536751 Y174.145154 Z34.000000 I0.546479 J0.495997
G02 X117.495870 Y174.409321 Z34.000000 I0.603359 J0.228620
G02 X117.580848 Y174.762515 Z34.000000 I1.007528 J-0.055591
G03 X117.674747 Y175.014262 Z34.000000 I-2.044910 J0.906115
G03 X117.704320 Y175.203487 Z34.000000 I-0.647606 J0.198135
G03 X117.693271 Y175.306240 Z34.000000 I-0.432914 J0.005416
G03 X117.651404 Y175.406335 Z34.000000 I-0.313543 J-0.072343
G03 X117.581400 Y175.486026 Z34.000000 I-0.289822 J-0.183997
G03 X117.492654 Y175.538626 Z34.000000 I-0.207470 J-0.248875
G03 X117.299765 Y175.577475 Z34.000000 I-0.205410 J-0.521610
G03 X117.007584 Y175.565070 Z34.000000 I-0.050462 J-2.258749
G03 X116.707204 Y175.520799 Z34.000000 I0.414116 J-3.850959
G03 X116.231473 Y175.423959 Z34.000000 I2.930677 J-15.614036
G02 X115.198694 Y175.356429 Z34.000000 I-0.738595 J3.364554
G02 X114.344112 Y175.582709 Z34.000000 I0.218873 J2.553478
G02 X113.783714 Y175.926319 Z34.000000 I1.170913 J2.538448
G02 X113.594459 Y176.147154 Z34.000000 I0.466267 J0.591101
G02 X113.548927 Y176.274547 Z34.000000 I0.346285 J0.195600
G02 X113.550362 Y176.358820 Z34.000000 I0.220559 J0.038394
G02 X113.581325 Y176.439326 Z34.000000 I0.263834 J-0.055265
G02 X113.682654 Y176.552848 Z34.000000 I0.329444 J-0.192075
G03 X113.806400 Y176.669635 Z34.000000 I-0.442585 J0.592914
G03 X113.982515 Y176.896807 Z34.000000 I-2.777495 J2.335104
G03 X114.153838 Y177.150799 Z34.000000 I-4.718521 J3.367513
G03 X114.344112 Y177.461251 Z34.000000 I-8.957786 J5.703710
G01 X114.776251 Y178.184445 Z34.000000
G01 X114.996737 Y178.572501 Z34.000000
G01 X114.591042 Y178.387293 Z34.000000
G01 X114.123612 Y178.175626 Z34.000000
G02 X112.481823 Y177.753862 Z34.000000 I-2.035468 J4.517053
G02 X110.948612 Y177.919862 Z34.000000 I-0.328881 J4.125908
G02 X110.560382 Y178.053843 Z34.000000 I1.612211 J5.301099
G02 X110.304792 Y178.166807 Z34.000000 I1.078712 J2.786303
G02 X110.185171 Y178.233531 Z34.000000 I0.666963 J1.336292
G02 X110.128403 Y178.272640 Z34.000000 I0.373894 J0.603475
G03 X110.135936 Y178.284319 Z34.000000 I-1.868275 J1.213166
G02 X110.146042 Y178.299084 Z34.000000 I0.246487 J-0.157879
G02 X110.204965 Y178.369576 Z34.000000 I0.567851 J-0.414780
G03 X110.313612 Y178.484292 Z34.000000 I-16.931084 J16.144100
G02 X110.539418 Y178.710889 Z34.000000 I4.044940 J-3.805029
G02 X110.869237 Y179.004640 Z34.000000 I4.945016 J-5.220150
G03 X111.395787 Y179.531510 Z34.000000 I-2.695606 J3.220520
G03 X111.574792 Y179.868945 Z34.000000 I-0.707709 J0.591629
G03 X111.587150 Y180.067870 Z34.000000 I-0.444653 J0.127468
G03 X111.495417 Y180.239362 Z34.000000 I-0.291323 J-0.045550
G03 X111.326604 Y180.327737 Z34.000000 I-0.249637 J-0.271434
G03 X111.089723 Y180.354015 Z34.000000 I-0.236881 J-1.054545
G03 X110.965277 Y180.331967 Z34.000000 I0.000000 J-0.362239
G03 X110.816320 Y180.274640 Z34.000000 I1.642091 J-4.488903
G03 X110.644033 Y180.199928 Z34.000000 I1.402584 J-3.470401
G03 X110.392987 Y180.080612 Z34.000000 I6.211000 J-13.391975
G03 X109.887684 Y179.825019 Z34.000000 I8.151027 J-16.741724
G03 X109.228820 Y179.463251 Z34.000000 I9.375680 J-17.856146
G01 X107.782431 Y178.634223 Z34.000000
G01 X106.777015 Y179.251584 Z34.000000
G02 X106.316952 Y179.533354 Z34.000000 I33.900613 J55.867990
G02 X105.983265 Y179.745473 Z34.000000 I8.260688 J13.363545
G02 X105.825052 Y179.853001 Z34.000000 I2.888694 J4.420474
G03 X105.727501 Y179.921862 Z34.000000 I-92.000915 J-130.228827
G03 X105.694458 Y179.943274 Z34.000000 I-0.289940 J-0.411221
G02 X105.674584 Y179.957140 Z34.000000 I0.084463 J0.142242
G02 X105.702250 Y180.010162 Z34.000000 I2.950043 J-1.505524
G02 X105.762778 Y180.107070 Z34.000000 I0.737877 J-0.393521
G02 X105.930544 Y180.316645 Z34.000000 I2.248368 J-1.627895
G02 X106.212570 Y180.618598 Z34.000000 I5.557726 J-4.908267
G03 X106.521221 Y180.964843 Z34.000000 I-3.230480 J3.190419
G03 X106.680001 Y181.191862 Z34.000000 I-1.621832 J1.303363
G03 X106.747234 Y181.309241 Z34.000000 I-2.460366 J1.487215
G03 X106.785834 Y181.412348 Z34.000000 I-0.350743 J0.190086
G03 X106.792091 Y181.529725 Z34.000000 I-0.346026 J0.077302
G03 X106.750556 Y181.650473 Z34.000000 I-0.293272 J-0.033362
G03 X106.662520 Y181.733991 Z34.000000 I-0.199403 J-0.122033
G03 X106.556528 Y181.773945 Z34.000000 I-0.198943 J-0.367190
G03 X106.448884 Y181.788043 Z34.000000 I-0.128496 J-0.563118
G03 X106.318403 Y181.782751 Z34.000000 I-0.030782 J-0.852149
G03 X106.050151 Y181.730627 Z34.000000 I0.213266 J-1.813909
G03 X105.612848 Y181.588723 Z34.000000 I1.290441 J-4.721484
G02 X104.772138 Y181.336965 Z34.000000 I-2.220698 J5.886107
G02 X103.654931 Y181.156570 Z34.000000 I-2.033797 J9.045861
G02 X102.993277 Y181.134155 Z34.000000 I-0.502601 J5.059262
G02 X102.499584 Y181.209487 Z34.000000 I0.065184 J2.082584
G02 X102.012326 Y181.393678 Z34.000000 I0.778478 J2.795968
G02 X101.062014 Y181.888584 Z34.000000 I8.096053 J16.705770
G02 X100.411821 Y182.266151 Z34.000000 I10.708267 J19.188898
G02 X99.977223 Y182.541223 Z34.000000 I6.309955 J10.450241
G02 X99.771561 Y182.684621 Z34.000000 I2.943839 J4.441246
G02 X99.659723 Y182.770528 Z34.000000 I1.844028 J2.516384
G03 X99.620114 Y182.797886 Z34.000000 I-0.205737 J-0.255516
G02 X99.597987 Y182.814626 Z34.000000 I0.060369 J0.102793
G02 X99.601990 Y182.825817 Z34.000000 I0.078089 J-0.021625
G03 X99.615626 Y182.858723 Z34.000000 I-0.674495 J0.298768
G02 X99.647723 Y182.934237 Z34.000000 I1.156533 J-0.447007
G02 X99.703820 Y183.052751 Z34.000000 I8.392644 J-3.900030
G02 X99.824010 Y183.292078 Z34.000000 I7.426132 J-3.579554
G02 X99.994862 Y183.599556 Z34.000000 I6.107215 J-3.192296
G03 X100.168606 Y183.920307 Z34.000000 I-4.333377 J2.554732
G03 X100.277084 Y184.164001 Z34.000000 I-2.890098 J1.432494
G03 X100.322124 Y184.288514 Z34.000000 I-2.028013 J0.804002
G03 X100.347639 Y184.384487 Z34.000000 I-0.829818 J0.271991
G03 X100.354485 Y184.427588 Z34.000000 I-0.469152 J0.096608
G03 X100.356445 Y184.472681 Z34.000000 I-0.327607 J0.036827
G03 X100.350301 Y184.519998 Z34.000000 I-0.229633 J-0.005760
G03 X100.312348 Y184.596153 Z34.000000 I-0.182215 J-0.043275
G03 X100.205134 Y184.656345 Z34.000000 I-0.131728 J-0.109053
G03 X100.153598 Y184.657890 Z34.000000 I-0.032517 J-0.224499
G03 X100.098670 Y184.648286 Z34.000000 I0.026342 J-0.312542
G03 X100.038945 Y184.631445 Z34.000000 I0.631343 J-2.353375
G03 X99.915275 Y184.590933 Z34.000000 I0.644206 J-2.175535
G03 X99.730264 Y184.516793 Z34.000000 I0.940002 J-2.613607
G03 X99.355034 Y184.337850 Z34.000000 I3.010367 J-6.795413
G03 X98.821861 Y184.049362 Z34.000000 I6.001126 J-11.727997
G02 X97.588675 Y183.570917 Z34.000000 I-2.211529 J3.871710
G02 X95.946723 Y183.396723 Z34.000000 I-1.571554 J6.987844
G02 X94.425690 Y183.512462 Z34.000000 I0.113408 J11.542963
G02 X94.094639 Y183.643668 Z34.000000 I0.108148 J0.756120
G02 X94.011066 Y183.746488 Z34.000000 I0.139950 J0.199128
G02 X93.997625 Y183.872973 Z34.000000 I0.197032 J0.084893
G02 X94.059381 Y184.041704 Z34.000000 I0.568450 J-0.112387
G02 X94.297486 Y184.402140 Z34.000000 I2.446818 J-1.357514
G03 X94.523475 Y184.718107 Z34.000000 I-3.815889 J2.968032
G03 X94.614986 Y184.896029 Z34.000000 I-0.793267 J0.520500
G03 X94.631301 Y184.941037 Z34.000000 I-1.024722 J0.396896
G03 X94.641431 Y184.993043 Z34.000000 I-0.188429 J0.063692
G03 X94.639224 Y185.055035 Z34.000000 I-0.331151 J0.019250
G03 X94.606153 Y185.134154 Z34.000000 I-0.161323 J-0.020962
G03 X94.536859 Y185.187262 Z34.000000 I-0.137089 J-0.107109
G03 X94.473861 Y185.204709 Z34.000000 I-0.098163 J-0.231983
G03 X94.417105 Y185.204549 Z34.000000 I-0.027822 J-0.197151
G03 X94.368028 Y185.195904 Z34.000000 I0.126923 J-0.864129
G03 X94.177142 Y185.133996 Z34.000000 I0.176698 J-0.870067
G03 X93.812403 Y184.948959 Z34.000000 I1.987784 J-4.370274
G03 X93.445407 Y184.731224 Z34.000000 I4.470935 J-7.953981
G03 X92.842264 Y184.349237 Z34.000000 I33.160233 J-53.025916
G02 X92.186911 Y183.962663 Z34.000000 I-5.502859 J8.580110
G02 X91.757472 Y183.758334 Z34.000000 I-2.196573 J4.063115
G02 X91.282538 Y183.627825 Z34.000000 I-0.759206 J1.833403
G02 X91.219486 Y183.634862 Z34.000000 I-0.018023 J0.124512
G03 X91.063617 Y183.662991 Z34.000000 I-0.152052 J-0.396633
G03 X90.849070 Y183.652501 Z34.000000 I0.024212 J-2.694387
G03 X90.615855 Y183.626861 Z34.000000 I0.498710 J-5.609465
G03 X90.284625 Y183.573126 Z34.000000 I0.715306 J-5.457039
G03 X89.614674 Y183.423963 Z34.000000 I2.351057 J-12.138596
G03 X88.758861 Y183.185071 Z34.000000 I4.277891 J-16.977611
G02 X87.918921 Y182.943100 Z34.000000 I-7.493311 J24.432349
G02 X87.330111 Y182.797015 Z34.000000 I-3.911382 J14.505533
G02 X87.035011 Y182.730800 Z34.000000 I-14.657185 J64.632003
G02 X86.862681 Y182.700001 Z34.000000 I-0.456218 J2.055166
G02 X86.809089 Y182.693841 Z34.000000 I-0.172453 J1.264127
G02 X86.774486 Y182.691196 Z34.000000 I-0.095100 J1.016340
G02 X86.782158 Y182.764715 Z34.000000 I0.538391 J-0.019023
G02 X86.809764 Y182.902862 Z34.000000 I2.821857 J-0.492055
G02 X86.887507 Y183.185179 Z34.000000 I3.049856 J-0.687993
G02 X87.039070 Y183.590779 Z34.000000 I4.896220 J-1.598475
G03 X87.202640 Y184.009174 Z34.000000 I-7.669098 J3.239381
G03 X87.294833 Y184.287515 Z34.000000 I-5.338204 J1.922588
G03 X87.336146 Y184.424060 Z34.000000 I-226.617736 J68.640139
G03 X87.356570 Y184.516821 Z34.000000 I-0.592578 J0.179096
G03 X87.360122 Y184.559700 Z34.000000 I-0.372809 J0.052475
G03 X87.356570 Y184.613835 Z34.000000 I-0.298316 J0.007606
G03 X87.349040 Y184.642399 Z34.000000 I-0.144516 J-0.022818
G03 X87.321292 Y184.693210 Z34.000000 I-0.192852 J-0.072338
G03 X87.270272 Y184.736937 Z34.000000 I-0.122667 J-0.091495
G03 X87.197820 Y184.754946 Z34.000000 I-0.072453 J-0.136743
G03 X87.012949 Y184.716746 Z34.000000 I-0.000000 J-0.466444
G03 X86.792125 Y184.605015 Z34.000000 I0.805995 J-1.867050
G03 X86.566868 Y184.460842 Z34.000000 I1.686724 J-2.883410
G03 X86.289417 Y184.252237 Z34.000000 I2.813933 J-4.031436
G03 X85.751437 Y183.768066 Z34.000000 I4.311845 J-5.332010
G03 X85.275181 Y183.229182 Z34.000000 I4.143893 J-4.142197
G02 X84.636982 Y182.577295 Z34.000000 I-3.206408 J2.500736
G02 X83.290806 Y181.624043 Z34.000000 I-7.729517 J9.488421
G03 X81.933728 Y180.650763 Z34.000000 I5.934198 J-9.707008
G03 X80.644972 Y179.419182 Z34.000000 I8.520506 J-10.206140
G02 X80.127751 Y178.871340 Z34.000000 I-17.743924 J16.234085
G02 X79.780667 Y178.528418 Z34.000000 I-9.144949 J8.908835
G02 X79.707214 Y178.463841 Z34.000000 I-0.862684 J0.907181
G03 X79.648375 Y178.413765 Z34.000000 I1.059591 J-1.304643
G02 X79.719611 Y178.683081 Z34.000000 I4.779190 J-1.120044
G02 X79.842403 Y179.066404 Z34.000000 I8.377127 J-2.472166
G03 X79.963562 Y179.463422 Z34.000000 I-5.322056 J1.841147
G03 X80.036431 Y179.780779 Z34.000000 I-4.679373 J1.241476
G03 X80.066315 Y179.941731 Z34.000000 I-9.594940 J1.864787
G03 X80.080528 Y180.063001 Z34.000000 I-1.027413 J0.181878
G03 X80.078666 Y180.168664 Z34.000000 I-0.697504 J0.040560
G03 X80.045250 Y180.283487 Z34.000000 I-0.315413 J-0.029519
G03 X79.998982 Y180.336352 Z34.000000 I-0.128331 J-0.065636
G03 X79.939417 Y180.362862 Z34.000000 I-0.099858 J-0.144197
G03 X79.879492 Y180.368403 Z34.000000 I-0.049700 J-0.210691
G03 X79.842403 Y180.362862 Z34.000000 I0.008779 J-0.185666
G03 X79.773941 Y180.337224 Z34.000000 I0.082381 J-0.324208
G03 X79.710111 Y180.301126 Z34.000000 I0.352827 J-0.698365
G03 X79.583637 Y180.212764 Z34.000000 I0.851637 J-1.353660
G03 X79.392611 Y180.054182 Z34.000000 I2.182862 J-2.823782
G03 X79.023372 Y179.699744 Z34.000000 I4.564146 J-5.124299
G03 X78.484208 Y179.119321 Z34.000000 I14.249686 J-13.777360
G02 X77.335098 Y177.911970 Z34.000000 I-19.367082 J17.282346
G02 X76.526292 Y177.170223 Z34.000000 I-10.753974 J10.914372
G02 X76.105490 Y176.827916 Z34.000000 I-7.503446 J8.794273
G02 X75.856014 Y176.658696 Z34.000000 I-1.457166 J1.879738
G02 X75.718535 Y176.592136 Z34.000000 I-0.475169 J0.806205
G02 X75.653167 Y176.570501 Z34.000000 I-0.250792 J0.648176
G01 X75.635352 Y176.561304 Z34.000000
G01 X75.635528 Y176.552862 Z34.000000
G01 X75.642882 Y176.557638 Z34.000000
G03 X75.635528 Y176.588140 Z34.000000 I-1.055561 J-0.238380
G02 X75.622021 Y176.650560 Z34.000000 I0.812796 J0.208552
G02 X75.609084 Y176.764529 Z34.000000 I0.911314 J0.161167
G02 X75.609692 Y177.003382 Z34.000000 I2.212230 J0.113788
G02 X75.644361 Y177.328973 Z34.000000 I3.297405 J-0.186465
G01 X75.767834 Y178.113904 Z34.000000
G01 X75.847209 Y178.572515 Z34.000000
G01 X75.529709 Y178.228557 Z34.000000
G01 X74.965264 Y177.620015 Z34.000000
G03 X74.089273 Y176.498776 Z34.000000 I6.377332 J-5.885236
G03 X72.601653 Y174.065779 Z34.000000 I36.839386 J-24.196184
G03 X71.268623 Y171.568495 Z34.000000 I47.137740 J-26.766176
G03 X70.185125 Y169.206265 Z34.000000 I34.025452 J-17.036248
G01 X68.888667 Y166.110640 Z34.000000
G01 X67.821514 Y165.581473 Z34.000000
G03 X63.066842 Y162.572736 Z34.000000 I11.824775 J-23.947794
G03 X58.164222 Y157.943834 Z34.000000 I24.093360 J-30.428773
G03 X57.923387 Y157.669582 Z34.000000 I20.918437 J-18.612442
G03 X57.811445 Y157.538140 Z34.000000 I7.546533 J-6.540384
G02 X57.754610 Y157.472354 Z34.000000 I-2.123361 J1.776975
G03 X57.723250 Y157.432307 Z34.000000 I0.297346 J-0.265149
G01 X57.719086 Y157.420865 Z34.000000
G01 X57.714445 Y157.405862 Z34.000000
G02 X57.706887 Y157.394922 Z34.000000 I-0.056719 J0.031104
G03 X57.688001 Y157.352946 Z34.000000 I0.062264 J-0.053250
G03 X57.687825 Y157.310150 Z34.000000 I0.151951 J-0.022022
G02 X57.688001 Y157.308849 Z34.000000 I-0.410929 J-0.056115
G03 X57.699701 Y157.273495 Z34.000000 I0.102716 J0.014380
G03 X57.714445 Y157.247112 Z34.000000 I1.392425 J0.760863
G03 X57.741115 Y157.221362 Z34.000000 I0.073258 J0.049188
G03 X57.776181 Y157.203015 Z34.000000 I0.140986 J0.226784
G03 X57.792638 Y157.196966 Z34.000000 I0.057395 J0.130732
G03 X57.811459 Y157.194210 Z34.000000 I0.018820 J0.062884
G01 X57.811787 Y157.194008 Z34.000000
G01 X57.829098 Y157.185405 Z34.000000
G03 X57.895358 Y157.204142 Z34.000000 I0.000397 J0.125121
G02 X57.908473 Y157.211849 Z34.000000 I0.173477 J-0.280201
G03 X57.958531 Y157.244292 Z34.000000 I-0.220916 J0.395701
G03 X58.005486 Y157.282404 Z34.000000 I-0.442121 J0.592691
G02 X58.062028 Y157.331323 Z34.000000 I2.607776 J-2.957035
G03 X58.155417 Y157.414696 Z34.000000 I-1.617520 J1.905820
G03 X58.338101 Y157.589338 Z34.000000 I-9.539233 J10.161362
G02 X58.675764 Y157.917404 Z34.000000 I167.599982 J-172.165032
G02 X61.803349 Y160.734680 Z34.000000 I39.876695 J-41.124240
G02 X64.831736 Y163.067960 Z34.000000 I30.646963 J-36.645078
G02 X65.962127 Y163.848744 Z34.000000 I33.154235 J-46.790865
G02 X66.957223 Y164.496710 Z34.000000 I21.669087 J-32.189584
G02 X68.015845 Y165.128391 Z34.000000 I13.742493 J-21.827898
G02 X68.385973 Y165.308099 Z34.000000 I1.630459 J-2.887087
G03 X68.955893 Y165.589101 Z34.000000 I-1.773013 J4.314420
G03 X69.285556 Y165.863724 Z34.000000 I-0.643211 J1.107303
G03 X69.513319 Y166.232291 Z34.000000 I-1.070318 J0.916083
G03 X69.770625 Y166.930877 Z34.000000 I-7.419562 J3.129487
G02 X69.912595 Y167.320172 Z34.000000 I4.591908 J-1.454055
G02 X69.991112 Y167.495321 Z34.000000 I3.089375 J-1.279748
G02 X70.021806 Y167.394260 Z34.000000 I-1.755766 J-0.588450
G03 X70.061667 Y167.310113 Z34.000000 I0.256438 J0.069962
G03 X70.183265 Y167.201288 Z34.000000 I0.301479 J0.214518
G03 X70.335070 Y167.160182 Z34.000000 I0.158727 J0.285319
G03 X70.617341 Y167.249638 Z34.000000 I0.009719 J0.459405
G03 X70.925973 Y167.539418 Z34.000000 I-1.057972 J1.436039
G03 X71.423488 Y168.299648 Z34.000000 I-2.945375 J2.470444
G03 X72.046042 Y169.841293 Z34.000000 I-9.649028 J4.793037
G02 X72.497622 Y171.070794 Z34.000000 I13.749237 J-4.352238
G02 X73.642362 Y173.695391 Z34.000000 I95.212203 J-39.965654
G02 X74.174302 Y174.848388 Z34.000000 I81.391039 J-36.850907
G02 X74.577223 Y175.679766 Z34.000000 I35.061601 J-16.479008
G02 X74.785416 Y176.079036 Z34.000000 I11.548281 J-5.767764
G02 X74.921181 Y176.323585 Z34.000000 I14.108677 J-7.672664
G02 X74.991520 Y176.446497 Z34.000000 I14.414307 J-8.167313
G02 X75.035834 Y176.517613 Z34.000000 I1.093049 J-0.631738
G01 X75.045650 Y176.527810 Z34.000000
G01 X75.053473 Y176.535252 Z34.000000
G03 X75.095083 Y176.324044 Z34.000000 I1.016074 J0.090477
G03 X75.203403 Y176.173654 Z34.000000 I0.278092 J0.086094
G03 X75.406110 Y176.097712 Z34.000000 I0.241729 J0.336719
G03 X75.653195 Y176.111918 Z34.000000 I0.077083 J0.815143
G03 X76.115800 Y176.290222 Z34.000000 I-0.325608 J1.534040
G03 X76.870278 Y176.817474 Z34.000000 I-2.779599 J4.780950
G02 X77.225467 Y177.097917 Z34.000000 I5.804489 J-6.986380
G02 X77.461181 Y177.258446 Z34.000000 I1.878851 J-2.505510
G02 X77.488903 Y177.272688 Z34.000000 I0.105279 J-0.170834
G03 X77.514098 Y177.284890 Z34.000000 I-0.099815 J0.238191
G03 X77.458688 Y177.215433 Z34.000000 I1.580196 J-1.317423
G02 X77.372987 Y177.117321 Z34.000000 I-0.782611 J0.597132
G03 X76.192484 Y175.554621 Z34.000000 I5.067371 J-5.055257
G03 X74.568403 Y172.346001 Z34.000000 I38.142183 J-21.321456
G03 X73.940256 Y170.862097 Z34.000000 I27.191690 J-12.385338
G03 X73.589445 Y169.841279 Z34.000000 I11.839646 J-4.639464
G03 X73.460508 Y169.334081 Z34.000000 I6.333510 J-1.880055
G03 X73.421875 Y169.021071 Z34.000000 I1.785003 J-0.379199
G03 X73.424242 Y168.873135 Z34.000000 I1.415978 J-0.051337
G03 X73.457153 Y168.747668 Z34.000000 I0.345662 J0.023621
G03 X73.554308 Y168.633613 Z34.000000 I0.262377 J0.125092
G03 X73.704098 Y168.588918 Z34.000000 I0.143569 J0.207807
G03 X73.873365 Y168.623453 Z34.000000 I-0.012163 J0.491699
G03 X74.048056 Y168.730029 Z34.000000 I-0.223079 J0.562113
G03 X74.188769 Y168.879439 Z34.000000 I-0.692940 J0.793571
G03 X74.365556 Y169.144543 Z34.000000 I-1.809365 J1.398090
G03 X74.643478 Y169.706272 Z34.000000 I-4.618928 J2.634888
G03 X75.221042 Y171.120099 Z34.000000 I-55.529769 J23.509412
G02 X77.373376 Y175.861499 Z34.000000 I47.546533 J-18.724274
G02 X79.039862 Y178.537251 Z34.000000 I17.537239 J-9.065545
G03 X79.167575 Y178.711910 Z34.000000 I-15.585473 J11.530409
G02 X79.260348 Y178.837113 Z34.000000 I5.301868 J-3.831603
G03 X79.124256 Y178.348144 Z34.000000 I10.836673 J-3.279532
G03 X79.075139 Y178.069821 Z34.000000 I1.843359 J-0.468798
G03 X79.071153 Y177.917888 Z34.000000 I1.022454 J-0.102845
G03 X79.101584 Y177.787599 Z34.000000 I0.369870 J0.017688
G03 X79.137241 Y177.726325 Z34.000000 I0.281565 J0.122844
G03 X79.198597 Y177.672946 Z34.000000 I0.154608 J0.115759
G03 X79.277409 Y177.646849 Z34.000000 I0.109431 J0.198421
G03 X79.348528 Y177.646502 Z34.000000 I0.036879 J0.270416
G03 X79.475827 Y177.686722 Z34.000000 I-0.046450 J0.368578
G03 X79.613111 Y177.769974 Z34.000000 I-0.642933 J1.215036
G03 X79.742266 Y177.868203 Z34.000000 I-0.987100 J1.431888
G03 X79.921792 Y178.025738 Z34.000000 I-3.282171 J3.921415
G03 X80.270975 Y178.365625 Z34.000000 I-5.827325 J6.336012
G03 X80.856653 Y178.987057 Z34.000000 I-20.709374 J20.104563
G02 X82.118909 Y180.196891 Z34.000000 I9.837569 J-9.000441
G02 X83.334917 Y181.068446 Z34.000000 I6.277336 J-7.474167
G03 X84.594387 Y181.961827 Z34.000000 I-5.579560 J9.200423
G03 X85.636792 Y182.964627 Z34.000000 I-5.955733 J7.234143
G02 X85.866226 Y183.207778 Z34.000000 I4.322412 J-3.848740
G03 X86.033667 Y183.379141 Z34.000000 I-7.404951 J7.402985
G02 X85.721185 Y182.957948 Z34.000000 I-21.105859 J15.331891
G02 X85.213459 Y182.311988 Z34.000000 I-18.397609 J13.938047
G03 X80.949865 Y176.534860 Z34.000000 I57.800635 J-47.119451
G03 X78.616514 Y172.407752 Z34.000000 I27.028991 J-18.004595
G03 X78.224660 Y171.428874 Z34.000000 I7.852179 J-3.711171
G03 X78.087347 Y170.820252 Z34.000000 I3.022280 J-1.001664
G03 X78.076705 Y170.522588 Z34.000000 I1.681561 J-0.209144
G03 X78.122625 Y170.308724 Z34.000000 I0.688774 J0.036030
G03 X78.258190 Y170.127195 Z34.000000 I0.394829 J0.153472
G03 X78.475403 Y170.052960 Z34.000000 I0.217213 J0.280666
G03 X78.671195 Y170.091035 Z34.000000 I-0.000000 J0.522448
G03 X78.872278 Y170.211710 Z34.000000 I-0.282158 J0.698036
G03 X79.038534 Y170.382904 Z34.000000 I-0.743813 J0.888684
G03 X79.242695 Y170.670321 Z34.000000 I-2.769874 J2.183744
G03 X79.578142 Y171.276528 Z34.000000 I-4.697996 J2.995571
G03 X80.151097 Y172.566502 Z34.000000 I-25.288060 J12.004189
G02 X81.351469 Y175.045184 Z34.000000 I21.864644 J-9.058569
G02 X83.908181 Y179.295738 Z34.000000 I67.023357 J-37.420399
G02 X85.468170 Y181.659950 Z34.000000 I126.270920 J-81.621182
G02 X86.068945 Y182.506016 Z34.000000 I17.367395 J-11.695907
G02 X86.182769 Y182.648608 Z34.000000 I2.324312 J-1.738659
G03 X86.262973 Y182.744141 Z34.000000 I-7.069176 J6.016272
G03 X86.239019 Y182.560009 Z34.000000 I5.473249 J-0.805647
G03 X86.280611 Y182.400182 Z34.000000 I0.228572 J-0.025842
G03 X86.465715 Y182.260665 Z34.000000 I0.315562 J0.226119
G03 X86.756861 Y182.206154 Z34.000000 I0.317041 J0.888571
G03 X87.350165 Y182.264525 Z34.000000 I0.065354 J2.380210
G03 X88.794153 Y182.647127 Z34.000000 I-4.675517 J20.562193
G02 X89.605226 Y182.868989 Z34.000000 I4.449441 J-14.672562
G02 X90.328736 Y183.026363 Z34.000000 I3.458105 J-14.156483
G02 X91.093560 Y183.141016 Z34.000000 I1.815887 J-9.505009
G02 X91.342973 Y183.141016 Z34.000000 I0.124702 J-1.141315
G03 X91.665334 Y183.130712 Z34.000000 I0.228098 J2.088382
G03 X91.969153 Y183.167460 Z34.000000 I-0.091044 J2.027018
G03 X92.056952 Y183.201723 Z34.000000 I-0.052388 J0.263867
G02 X92.136723 Y183.238015 Z34.000000 I0.188894 J-0.309377
G03 X92.098829 Y183.188784 Z34.000000 I0.440961 J-0.378612
G02 X92.066167 Y183.149821 Z34.000000 I-0.220526 J0.151689
G02 X92.012512 Y183.098921 Z34.000000 I-1.367160 J1.387449
G02 X91.986792 Y183.079265 Z34.000000 I-0.124881 J0.136750
G03 X91.674155 Y183.088602 Z34.000000 I-0.197784 J-1.383759
G03 X91.457625 Y183.017529 Z34.000000 I0.040227 J-0.487927
G03 X91.363440 Y182.933579 Z34.000000 I0.189062 J-0.306920
G03 X91.307695 Y182.814682 Z34.000000 I0.227801 J-0.179323
G03 X91.311381 Y182.717301 Z34.000000 I0.194231 J-0.041407
G03 X91.342973 Y182.620654 Z34.000000 I1.615267 J0.474499
G03 X91.300596 Y182.604540 Z34.000000 I0.150111 J-0.458533
G03 X91.263598 Y182.585376 Z34.000000 I0.123172 J-0.283103
G03 X91.185000 Y182.531526 Z34.000000 I0.451214 J-0.742852
G03 X91.078389 Y182.444265 Z34.000000 I1.381738 J-1.796900
G03 X90.875580 Y182.256823 Z34.000000 I3.051373 J-3.504975
G03 X90.549223 Y181.923918 Z34.000000 I8.340627 J-8.503001
G03 X89.905223 Y181.211398 Z34.000000 I16.670212 J-15.714382
G03 X88.979361 Y180.107113 Z34.000000 I33.555260 J-29.073886
G03 X86.556271 Y176.941437 Z34.000000 I54.890616 J-44.524890
G03 X85.019431 Y174.647876 Z34.000000 I32.227178 J-23.256056
G03 X84.339165 Y173.483692 Z34.000000 I21.378866 J-13.273120
G03 X83.978736 Y172.742876 Z34.000000 I7.340961 J-4.029679
G03 X83.834041 Y172.361756 Z34.000000 I4.600926 J-1.964806
G03 X83.767070 Y172.099057 Z34.000000 I1.775663 J-0.592566
G03 X83.755454 Y171.840683 Z34.000000 I0.965591 J-0.172859
G03 X83.837625 Y171.640446 Z34.000000 I0.362319 J0.031706
G03 X83.940145 Y171.559480 Z34.000000 I0.240465 J0.199093
G03 X84.058111 Y171.525793 Z34.000000 I0.151803 J0.308192
G03 X84.171949 Y171.530353 Z34.000000 I0.040572 J0.410376
G03 X84.287417 Y171.561071 Z34.000000 I-0.130548 J0.723106
G03 X84.514520 Y171.670549 Z34.000000 I-0.391849 J1.103154
G03 X84.790125 Y171.869751 Z34.000000 I-1.308194 J2.100196
G03 X85.286803 Y172.371359 Z34.000000 I-2.364128 J2.837597
G03 X85.751445 Y173.069196 Z34.000000 I-3.341354 J2.728382
G02 X86.986271 Y175.109579 Z34.000000 I19.445064 J-10.374175
G02 X90.240542 Y179.657321 Z34.000000 I101.588645 J-69.256543
G03 X91.427812 Y181.266047 Z34.000000 I-99.177629 J74.437420
G03 X92.207278 Y182.356071 Z34.000000 I-78.089956 J56.665125
G03 X92.585409 Y182.895194 Z34.000000 I-123.057411 J86.712525
G03 X92.798181 Y183.211557 Z34.000000 I-8.984057 J6.271992
G03 X92.894464 Y183.371159 Z34.000000 I-2.456067 J1.590518
G03 X92.948111 Y183.467321 Z34.000000 I-22.987829 J12.887599
G02 X92.973983 Y183.511193 Z34.000000 I0.851223 J-0.472406
G03 X92.992209 Y183.546696 Z34.000000 I-0.199960 J0.125080
G02 X93.000702 Y183.565119 Z34.000000 I0.226765 J-0.093374
G03 X93.009848 Y183.590793 Z34.000000 I-0.092742 J0.047502
G01 X93.010118 Y183.605420 Z34.000000
G02 X93.009848 Y183.626071 Z34.000000 I0.060886 J0.011125
G02 X93.064147 Y183.646484 Z34.000000 I0.115835 J-0.225693
G02 X93.203875 Y183.670168 Z34.000000 I0.223129 J-0.892382
G02 X93.339131 Y183.664450 Z34.000000 I0.046236 J-0.508873
G02 X93.406723 Y183.643724 Z34.000000 I-0.050430 J-0.285036
G03 X93.437316 Y183.631589 Z34.000000 I0.156636 J0.350256
G01 X93.442000 Y183.634919 Z34.000000
G03 X93.504685 Y183.442766 Z34.000000 I0.325852 J0.000000
G03 X93.653667 Y183.299780 Z34.000000 I0.478250 J0.349196
G03 X93.841798 Y183.200380 Z34.000000 I0.572349 J0.855535
G03 X94.112278 Y183.105752 Z34.000000 I1.163345 J2.891369
G03 X94.684726 Y182.976936 Z34.000000 I1.215409 J4.064812
G03 X95.488111 Y182.885266 Z34.000000 I1.590993 J10.377050
G03 X97.132173 Y182.874340 Z34.000000 I0.901722 J11.986042
G03 X98.275056 Y183.123391 Z34.000000 I-0.237368 J3.836114
G02 X98.120278 Y182.948694 Z34.000000 I-5.313781 J4.551991
G02 X97.401931 Y182.170891 Z34.000000 I-97.948348 J89.740454
G02 X96.634097 Y181.350230 Z34.000000 I-165.216834 J153.812100
G02 X95.602764 Y180.257071 Z34.000000 I-329.575549 J309.902628
G03 X92.817343 Y177.158770 Z34.000000 I58.883375 J-55.738299
G03 X91.096028 Y175.000682 Z34.000000 I31.537728 J-26.920355
G03 X90.317724 Y173.889216 Z34.000000 I18.705166 J-13.926518
G03 X89.905403 Y173.192696 Z34.000000 I7.151137 J-4.703587
G03 X89.733832 Y172.837577 Z34.000000 I4.693960 J-2.486827
G03 X89.649639 Y172.592974 Z34.000000 I1.456434 J-0.638099
G03 X89.632381 Y172.368656 Z34.000000 I0.632149 J-0.161459
G03 X89.693736 Y172.187280 Z34.000000 I0.418522 J0.040510
G01 X89.614361 Y172.010891 Z34.000000
G01 X89.773111 Y172.107905 Z34.000000
G02 X89.853890 Y172.063579 Z34.000000 I-7.426780 J-13.630150
G03 X89.931861 Y172.046169 Z34.000000 I0.068681 J0.124287
G03 X90.046924 Y172.067811 Z34.000000 I-0.031832 J0.485914
G03 X90.169986 Y172.116724 Z34.000000 I-0.278096 J0.878944
G03 X90.401789 Y172.255248 Z34.000000 I-0.665147 J1.376246
G03 X90.716792 Y172.504780 Z34.000000 I-2.752894 J3.798787
G03 X91.316364 Y173.091973 Z34.000000 I-4.415171 J5.107954
G03 X91.995611 Y173.942349 Z34.000000 I-6.779366 J6.111558
G02 X93.839236 Y176.484606 Z34.000000 I97.927472 J-69.076599
G02 X95.893806 Y179.181099 Z34.000000 I128.660395 J-95.900721
G02 X96.888803 Y180.443944 Z34.000000 I112.127068 J-87.321697
G02 X97.604778 Y181.324224 Z34.000000 I45.036373 J-35.898966
G02 X98.377887 Y182.213212 Z34.000000 I19.613887 J-16.276568
G02 X98.574917 Y182.400196 Z34.000000 I1.383206 J-1.260219
G02 X99.042533 Y182.744265 Z34.000000 I3.523016 J-4.298252
G02 X99.139361 Y182.788252 Z34.000000 I0.188536 J-0.286458
G01 X99.156742 Y182.797064 Z34.000000
G01 X99.157000 Y182.797057 Z34.000000
G01 X99.157615 Y182.796391 Z34.000000
G02 X99.192278 Y182.700043 Z34.000000 I-1.254140 J-0.505609
G03 X99.270568 Y182.568025 Z34.000000 I0.324079 J0.102964
G03 X99.403945 Y182.435460 Z34.000000 I2.663062 J2.545980
G03 X99.556972 Y182.301613 Z34.000000 I1.828172 J1.935750
G03 X99.783181 Y182.126779 Z34.000000 I4.004247 J4.947141
G03 X100.268677 Y181.793304 Z34.000000 I5.195687 J7.044068
G03 X100.920889 Y181.403585 Z34.000000 I6.905222 J10.815608
G03 X101.869141 Y180.908766 Z34.000000 I9.293677 J16.654035
G03 X102.420195 Y180.698029 Z34.000000 I1.474684 J3.030299
G03 X102.992533 Y180.605026 Z34.000000 I0.683407 J2.398089
G03 X103.681375 Y180.618654 Z34.000000 I0.238658 J5.352697
G03 X104.177878 Y180.671191 Z34.000000 I-0.983617 J11.668090
G03 X104.625056 Y180.742127 Z34.000000 I-0.936057 J7.345907
G03 X104.764637 Y180.778933 Z34.000000 I-0.193207 J1.015773
G02 X104.880820 Y180.812682 Z34.000000 I0.433023 J-1.273833
G03 X104.762549 Y180.694308 Z34.000000 I5.290426 J-5.404068
G02 X104.589778 Y180.530460 Z34.000000 I-2.241076 J2.190109
G03 X101.145710 Y177.373101 Z34.000000 I73.111857 J-83.207978
G03 X99.130542 Y175.326988 Z34.000000 I33.162956 J-34.676809
G03 X98.192363 Y174.268735 Z34.000000 I23.021737 J-21.354568
G03 X97.701792 Y173.624835 Z34.000000 I5.970826 J-5.057854
G03 X97.491175 Y173.284099 Z34.000000 I3.622069 J-2.474349
G03 X97.384292 Y173.051571 Z34.000000 I1.451360 J-0.807956
G03 X97.346316 Y172.930352 Z34.000000 I1.188259 J-0.438821
G03 X97.331375 Y172.822266 Z34.000000 I0.456013 J-0.118110
G03 X97.345600 Y172.709320 Z34.000000 I0.385671 J-0.008795
G03 X97.401931 Y172.601779 Z34.000000 I0.281511 J0.078934
G03 X97.515598 Y172.511107 Z34.000000 I0.273870 J0.226742
G03 X97.657695 Y172.469488 Z34.000000 I0.183817 J0.364203
G03 X97.803800 Y172.474899 Z34.000000 I0.053770 J0.523326
G03 X97.966375 Y172.522404 Z34.000000 I-0.138070 J0.774451
G03 X98.255881 Y172.686533 Z34.000000 I-0.515543 J1.246756
G03 X98.716028 Y173.060391 Z34.000000 I-4.124157 J5.546155
G03 X99.572126 Y173.899724 Z34.000000 I-7.906895 J8.921092
G03 X101.291306 Y175.856154 Z34.000000 I-39.826980 J36.730837
G02 X103.497389 Y178.434437 Z34.000000 I119.823227 J-100.292692
G02 X104.386931 Y179.383932 Z34.000000 I14.324531 J-12.528602
G02 X104.877005 Y179.834977 Z34.000000 I5.901524 J-5.920433
G02 X105.057209 Y179.957196 Z34.000000 I0.653017 J-0.768867
G02 X105.122278 Y179.982120 Z34.000000 I0.134041 J-0.252546
G03 X105.127764 Y179.983640 Z34.000000 I-0.025679 J0.103306
G03 X105.191656 Y179.861525 Z34.000000 I0.314706 J0.086884
G03 X105.295334 Y179.745515 Z34.000000 I1.726763 J1.438879
G03 X105.417345 Y179.625865 Z34.000000 I1.976426 J1.893383
G03 X105.595195 Y179.472113 Z34.000000 I2.524573 J2.740515
G03 X105.976594 Y179.186040 Z34.000000 I3.977462 J4.905565
G03 X106.485959 Y178.854751 Z34.000000 I5.938869 J8.573948
G01 X107.694223 Y178.113918 Z34.000000
G01 X107.764778 Y178.069821 Z34.000000
G01 X107.835334 Y178.113918 Z34.000000
G01 X108.990681 Y178.731279 Z34.000000
G02 X109.191607 Y178.827010 Z34.000000 I1.049220 J-1.943461
G03 X109.334639 Y178.890029 Z34.000000 I-1.443960 J3.471095
G02 X109.302446 Y178.854365 Z34.000000 I-0.123911 J0.079487
G03 X109.272903 Y178.819474 Z34.000000 I0.073274 J-0.091996
G03 X109.207884 Y178.654046 Z34.000000 I0.588176 J-0.326666
G03 X109.193528 Y178.493154 Z34.000000 I0.514448 J-0.126989
G03 X109.070732 Y178.524620 Z34.000000 I-0.155381 J-0.351037
G03 X108.964223 Y178.510793 Z34.000000 I-0.021456 J-0.251859
G03 X108.845827 Y178.459194 Z34.000000 I0.320720 J-0.897536
G03 X108.690820 Y178.369682 Z34.000000 I0.918858 J-1.770141
G03 X108.385465 Y178.154223 Z34.000000 I2.192658 J-3.431618
G03 X107.923528 Y177.778779 Z34.000000 I8.262451 J-10.637798
G03 X107.015656 Y176.964523 Z34.000000 I14.897870 J-17.523939
G03 X105.850959 Y175.820863 Z34.000000 I30.026112 J-31.743324
G03 X104.729040 Y174.634507 Z34.000000 I31.775350 J-31.173126
G03 X103.866584 Y173.642460 Z34.000000 I20.659025 J-18.831273
G03 X103.467690 Y173.142123 Z34.000000 I12.928760 J-10.716635
G03 X103.213945 Y172.786974 Z34.000000 I5.150772 J-3.948319
G03 X103.101649 Y172.606780 Z34.000000 I3.003371 J-1.996766
G03 X103.028736 Y172.469474 Z34.000000 I1.691879 J-0.986440
G03 X102.971128 Y172.331232 Z34.000000 I1.259080 J-0.605810
G03 X102.949361 Y172.204890 Z34.000000 I0.355782 J-0.126342
G03 X102.960397 Y172.050388 Z34.000000 I1.087114 J0.000000
G03 X103.002278 Y171.922668 Z34.000000 I0.383677 J0.055088
G03 X103.100136 Y171.813498 Z34.000000 I0.272223 J0.145569
G03 X103.240403 Y171.763918 Z34.000000 I0.163141 J0.238342
G03 X103.490704 Y171.816853 Z34.000000 I0.035693 J0.449458
G03 X103.840125 Y172.046140 Z34.000000 I-1.176621 J2.174006
G03 X104.497745 Y172.645507 Z34.000000 I-3.727766 J4.750521
G03 X106.009709 Y174.321557 Z34.000000 I-34.165785 J32.340932
G02 X107.754759 Y176.292322 Z34.000000 I67.702615 J-58.190570
G02 X109.052417 Y177.681765 Z34.000000 I59.613155 J-54.374460
G02 X109.445598 Y178.081074 Z34.000000 I13.839709 J-13.234108
G02 X109.696237 Y178.325585 Z34.000000 I22.462881 J-22.775086
G03 X109.707388 Y178.117882 Z34.000000 I0.551092 J-0.074563
G03 X109.802070 Y177.928710 Z34.000000 I0.465811 J0.114860
G03 X110.126128 Y177.683624 Z34.000000 I0.669633 J0.548622
G03 X110.913320 Y177.399543 Z34.000000 I2.599313 J5.970035
G03 X111.942549 Y177.237407 Z34.000000 I1.155738 J3.988733
G03 X113.021167 Y177.337807 Z34.000000 I0.134179 J4.402578
G02 X113.550557 Y177.432161 Z34.000000 I1.452287 J-6.616038
G02 X113.753181 Y177.443640 Z34.000000 I0.172835 J-1.256681
G03 X113.774634 Y177.444293 Z34.000000 I0.004626 J0.200768
G02 X113.788459 Y177.443640 Z34.000000 I0.004436 J-0.052761
G02 X113.766241 Y177.412540 Z34.000000 I-0.524771 J0.351404
G02 X113.726723 Y177.373085 Z34.000000 I-0.164333 J0.125077
G02 X113.629039 Y177.311551 Z34.000000 I-0.402335 J0.530393
G02 X113.523875 Y177.276071 Z34.000000 I-0.170012 J0.330328
G03 X113.300923 Y177.203101 Z34.000000 I0.145844 J-0.822699
G03 X112.950612 Y177.011488 Z34.000000 I2.032576 J-4.132034
G03 X112.600745 Y176.787991 Z34.000000 I4.371222 J-7.228397
G03 X112.130403 Y176.455863 Z34.000000 I7.382950 J-10.954427
G03 X111.196558 Y175.730975 Z34.000000 I14.984507 J-20.267925
G03 X110.101931 Y174.806626 Z34.000000 I25.530478 J-31.343888
G03 X109.038741 Y173.842045 Z34.000000 I26.517723 J-30.296855
G03 X108.249848 Y173.060376 Z34.000000 I14.540619 J-15.463934
G03 X107.882335 Y172.657937 Z34.000000 I8.279695 J-7.930153
G03 X107.650125 Y172.372460 Z34.000000 I4.151622 J-3.614140
G03 X107.544009 Y172.228798 Z34.000000 I5.380320 J-4.085222
G03 X107.473737 Y172.116696 Z34.000000 I0.852759 J-0.612638
G03 X107.422797 Y171.999329 Z34.000000 I0.644184 J-0.349324
G03 X107.403181 Y171.878571 Z34.000000 I0.361884 J-0.120758
G03 X107.420676 Y171.731572 Z34.000000 I0.626296 J0.000000
G03 X107.482556 Y171.605168 Z34.000000 I0.315817 J0.076256
G03 X107.603272 Y171.514679 Z34.000000 I0.234589 J0.187185
G03 X107.747139 Y171.490515 Z34.000000 I0.125265 J0.305455
G03 X108.009203 Y171.561105 Z34.000000 I-0.037273 J0.660127
G03 X108.417417 Y171.808015 Z34.000000 I-1.457712 J2.870921
G03 X109.187076 Y172.435989 Z34.000000 I-4.348988 J6.115857
G03 X110.807487 Y174.030515 Z34.000000 I-28.990314 J31.081549
G02 X112.331378 Y175.580152 Z34.000000 I75.846881 J-73.062689
G02 X112.791862 Y175.988432 Z34.000000 I3.741438 J-3.756003
G02 X113.043847 Y176.151942 Z34.000000 I1.014889 J-1.288124
G01 X113.056445 Y176.156001 Z34.000000
G02 X113.063448 Y176.145483 Z34.000000 I-0.046164 J-0.038325
G02 X113.091723 Y176.076626 Z34.000000 I-0.358051 J-0.187262
G03 X113.598997 Y175.379477 Z34.000000 I1.265243 J0.387511
G03 X114.617487 Y174.930099 Z34.000000 I1.650485 J2.361862
G03 X115.779618 Y174.838396 Z34.000000 I0.900905 J4.007403
G03 X117.166306 Y175.115307 Z34.000000 I-0.337934 J5.302784
G02 X117.201879 Y175.125939 Z34.000000 I0.150484 J-0.438663
G03 X117.228042 Y175.132946 Z34.000000 I-0.297538 J1.163355
G02 X117.196012 Y175.051242 Z34.000000 I-1.069531 J0.372152
G02 X117.131028 Y174.903640 Z34.000000 I-31.310464 J13.696818
G03 X117.011808 Y174.410734 Z34.000000 I1.296383 J-0.574431
G03 X117.078112 Y173.977599 Z34.000000 I1.052092 J-0.060590
G03 X117.308047 Y173.600151 Z34.000000 I1.118872 J0.422840
G03 X117.713112 Y173.254404 Z34.000000 I1.511876 J1.361105
G03 X118.701091 Y172.837715 Z34.000000 I1.664417 J2.566766
G03 X120.438320 Y172.645863 Z34.000000 I1.714134 J7.560261
G02 X120.942739 Y172.638983 Z34.000000 I0.048358 J-14.950253
G02 X121.276167 Y172.628224 Z34.000000 I-2.910802 J-95.375974
G03 X120.317640 Y172.349563 Z34.000000 I0.905912 J-4.904002
G03 X118.842000 Y171.666904 Z34.000000 I6.065528 J-15.047496
G03 X117.375388 Y170.804761 Z34.000000 I8.238732 J-15.693620
G03 X116.698875 Y170.211696 Z34.000000 I1.761120 J-2.691302
G03 X116.455341 Y169.928023 Z34.000000 I109.061294 J-93.875748
G03 X116.319639 Y169.761904 Z34.000000 I3.519415 J-3.013493
G03 X116.205912 Y169.597537 Z34.000000 I1.395248 J-1.086913
G03 X116.152070 Y169.462043 Z34.000000 I0.366573 J-0.224112
G03 X116.147842 Y169.380985 Z34.000000 I0.256139 J-0.053998
G03 X116.178514 Y169.294474 Z34.000000 I0.194298 J0.020193
G03 X116.241537 Y169.230554 Z34.000000 I0.188952 J0.123273
G03 X116.301986 Y169.197460 Z34.000000 I0.210987 J0.313628
G03 X116.425459 Y169.158889 Z34.000000 I0.241523 J0.556242
G03 X116.593028 Y169.126904 Z34.000000 I2.269298 J11.434099
G03 X116.890859 Y169.133192 Z34.000000 I0.133595 J0.728824
G03 X117.263306 Y169.268015 Z34.000000 I-0.355458 J1.563795
G03 X117.604472 Y169.480514 Z34.000000 I-1.063435 J2.087467
G03 X118.030597 Y169.832460 Z34.000000 I-3.496481 J4.667371
G02 X118.882356 Y170.532953 Z34.000000 I7.495978 J-8.246576
G02 X119.997334 Y171.296488 Z34.000000 I10.518595 J-14.164283
G01 X121.073334 Y171.975557 Z34.000000
G01 X121.681876 Y171.543404 Z34.000000
G03 X122.344778 Y171.214355 Z34.000000 I1.361399 J1.910408
G03 X123.242917 Y171.023057 Z34.000000 I1.480335 J4.746116
G02 X123.166732 Y171.009229 Z34.000000 I-0.186324 J0.809769
G03 X123.075348 Y170.987779 Z34.000000 I0.063837 J-0.477358
G03 X122.875862 Y170.910164 Z34.000000 I0.801479 J-2.355137
G03 X122.616737 Y170.793751 Z34.000000 I7.013980 J-15.959097
G03 X122.088130 Y170.536325 Z34.000000 I5.376719 J-11.712175
G03 X121.479028 Y170.202848 Z34.000000 I6.386187 J-12.387491
G03 X120.886686 Y169.842089 Z34.000000 I8.207462 J-14.142784
G03 X120.447153 Y169.541390 Z34.000000 I4.513911 J-7.069571
G03 X120.244977 Y169.380985 Z34.000000 I1.956631 J-2.673769
G03 X120.112015 Y169.259168 Z34.000000 I1.834883 J-2.136240
G03 X120.051640 Y169.194734 Z34.000000 I0.697640 J-0.714200
G03 X120.006181 Y169.135695 Z34.000000 I0.539102 J-0.462116
G03 X119.968873 Y169.076737 Z34.000000 I0.727322 J-0.501516
G03 X119.944445 Y168.985765 Z34.000000 I0.157177 J-0.090972
G03 X120.031960 Y168.747814 Z34.000000 I0.367248 J0.000000
G03 X120.226667 Y168.615348 Z34.000000 I0.338047 J0.287554
G03 X120.454567 Y168.576161 Z34.000000 I0.236459 J0.692883
G03 X120.729376 Y168.597709 Z34.000000 I0.017941 J1.534323
G03 X121.278958 Y168.779126 Z34.000000 I-0.322823 J1.901117
G03 X121.734792 Y169.162154 Z34.000000 I-0.592412 J1.167772
G02 X122.127867 Y169.578028 Z34.000000 I2.003027 J-1.499516
G02 X122.995973 Y170.211668 Z34.000000 I5.055052 J-6.014089
G03 X123.437862 Y170.514938 Z34.000000 I-3.624978 J5.755451
G03 X123.613334 Y170.679098 Z34.000000 I-0.647198 J0.867656
G03 X123.651713 Y170.726390 Z34.000000 I-0.909288 J0.777128
G03 X123.683890 Y170.784932 Z34.000000 I-0.172855 J0.133123
G03 X123.693860 Y170.853753 Z34.000000 I-0.160322 J0.058359
G03 X123.666251 Y170.943682 Z34.000000 I-0.200355 J-0.012309
G01 X123.653119 Y170.958282 Z34.000000
G02 X123.639806 Y170.970126 Z34.000000 I0.061477 J0.082503
G02 X123.860320 Y170.956275 Z34.000000 I-9.438867 J-152.034338
G02 X124.001404 Y170.943682 Z34.000000 I-0.175646 J-2.764344
G02 X124.069990 Y170.928145 Z34.000000 I-0.037487 J-0.324637
G03 X124.107237 Y170.917237 Z34.000000 I0.137877 J0.401778
G02 X124.077095 Y170.889011 Z34.000000 I-0.424516 J0.423115
G02 X124.027862 Y170.846682 Z34.000000 I-2.669351 J3.054943
G03 X123.695506 Y170.409198 Z34.000000 I0.816820 J-0.965524
G03 X123.622168 Y169.920640 Z34.000000 I0.807364 J-0.370979
G03 X123.782188 Y169.434921 Z34.000000 I1.373960 J0.183431
G03 X124.265987 Y168.712376 Z34.000000 I4.420960 J2.436932
G02 X124.591981 Y168.264440 Z34.000000 I-4.585965 J-3.680107
G02 X124.662862 Y168.130293 Z34.000000 I-0.661862 J-0.435519
G03 X124.431208 Y168.105571 Z34.000000 I0.025709 J-1.338614
G03 X124.265987 Y168.033279 Z34.000000 I0.079776 J-0.407274
G03 X124.150954 Y167.871521 Z34.000000 I0.185583 J-0.253758
G03 X124.142515 Y167.671682 Z34.000000 I0.379433 J-0.116121
G03 X124.308213 Y167.338058 Z34.000000 I0.740534 J0.159836
G03 X124.830432 Y166.833835 Z34.000000 I2.947971 J2.530638
G02 X125.247662 Y166.446506 Z34.000000 I-2.405645 J-3.009747
G02 X126.708973 Y164.823001 Z34.000000 I-50.858770 J-47.247217
G02 X128.081621 Y163.222800 Z34.000000 I-97.703020 J-85.198156
G02 X129.795779 Y161.162932 Z34.000000 I-150.143680 J-126.688064
G02 X133.604487 Y156.399120 Z34.000000 I-184.343119 J-151.288344
G02 X134.875779 Y154.583626 Z34.000000 I-17.231394 J-13.419067
G03 X136.593926 Y152.183749 Z34.000000 I20.438818 J12.817814
G03 X137.909668 Y150.870640 Z34.000000 I6.957081 J5.655284
G03 X139.472532 Y149.961472 Z34.000000 I3.716392 J4.590627
G03 X141.022932 Y149.635918 Z34.000000 I1.745333 J4.457325
G02 X142.182637 Y149.491161 Z34.000000 I-0.285637 J-7.006151
G02 X142.972029 Y149.230223 Z34.000000 I-0.769157 J-3.651375
G02 X142.980948 Y149.225813 Z34.000000 I-0.058489 J-0.129512
G03 X142.989668 Y149.221418 Z34.000000 I0.084680 J0.157156
G03 X143.344026 Y149.062726 Z34.000000 I4.286110 J9.095871
G03 X143.633487 Y148.948015 Z34.000000 I2.491581 J5.864687
G03 X143.775221 Y148.899821 Z34.000000 I1.030475 J2.797999
G03 X143.880432 Y148.868640 Z34.000000 I1.124437 J3.601007
G03 X143.976219 Y148.842797 Z34.000000 I1.314991 J4.683534
G03 X144.065640 Y148.833362 Z34.000000 I0.076306 J0.294745
G03 X144.103512 Y148.838568 Z34.000000 I-0.008294 J0.200709
G03 X144.171473 Y148.868640 Z34.000000 I-0.046499 J0.196915
G03 X144.229509 Y148.946417 Z34.000000 I-0.085125 J0.124060
G03 X144.233209 Y149.036210 Z34.000000 I-0.159433 J0.051543
G03 X144.179678 Y149.130493 Z34.000000 I-0.186963 J-0.043814
G03 X144.136196 Y149.168501 Z34.000000 I-0.402342 J-0.416409
G03 X144.011541 Y149.252315 Z34.000000 I-0.609034 J-0.771203
G03 X143.783418 Y149.371349 Z34.000000 I-1.838421 J-3.245144
G01 X143.430640 Y149.538918 Z34.000000
G01 X144.365501 Y150.341487 Z34.000000
G03 X145.319355 Y151.422769 Z34.000000 I-3.507800 J4.055772
G03 X145.732515 Y152.396418 Z34.000000 I-2.370606 J1.580433
G02 X146.005755 Y153.400718 Z34.000000 I9.968522 J-2.172819
G02 X146.314598 Y154.169126 Z34.000000 I6.012136 J-1.970161
G03 X146.462946 Y154.547053 Z34.000000 I-2.488030 J1.194705
G03 X146.685015 Y155.333293 Z34.000000 I-15.511027 J4.805485
G03 X146.872000 Y156.124066 Z34.000000 I-21.966245 J5.611592
G03 X147.037793 Y156.982529 Z34.000000 I-18.184443 J3.957162
G02 X147.441533 Y158.983041 Z34.000000 I31.595680 J-5.335602
G02 X147.760987 Y160.069335 Z34.000000 I10.021696 J-2.357029
G03 X148.001008 Y161.215343 Z34.000000 I-4.112197 J1.459402
G03 X147.946196 Y162.635793 Z34.000000 I-6.431350 J0.463108
G02 X147.846210 Y164.013028 Z34.000000 I8.927534 J1.340374
G02 X147.955001 Y165.219890 Z34.000000 I7.068699 J-0.028863
G03 X148.071280 Y166.483687 Z34.000000 I-7.448293 J1.322548
G03 X147.981445 Y168.412529 Z34.000000 I-17.786025 J0.138139
G02 X147.848028 Y170.323934 Z34.000000 I30.605508 J3.096633
G02 X147.840334 Y172.143154 Z34.000000 I26.497809 J1.021699
G03 X147.821166 Y173.963123 Z34.000000 I-22.402938 J0.674133
G03 X147.690403 Y174.991835 Z34.000000 I-6.884244 J-0.352408
G02 X147.510576 Y175.959597 Z34.000000 I26.794725 J5.479533
G02 X147.222973 Y177.787599 Z34.000000 I94.337697 J15.778949
G03 X146.914849 Y179.615750 Z34.000000 I-44.541880 J-6.567217
G03 X146.614431 Y180.980238 Z34.000000 I-23.550553 J-4.469790
G02 X146.301490 Y182.326167 Z34.000000 I38.499088 J9.660746
G02 X146.032348 Y183.670168 Z34.000000 I50.001339 J10.711935
G03 X145.722893 Y184.998852 Z34.000000 I-15.043997 J-2.803421
G03 X145.432626 Y185.822113 Z34.000000 I-6.414830 J-1.798953
G02 X145.175140 Y186.610068 Z34.000000 I4.301765 J1.841766
G02 X145.115126 Y187.136210 Z34.000000 I2.276323 J0.526142
G03 X145.024156 Y187.720183 Z34.000000 I-1.919876 J-0.000000
G03 X144.762348 Y188.150446 Z34.000000 I-1.019371 J-0.325487
G02 X144.666823 Y188.261208 Z34.000000 I0.714197 J0.712520
G02 X144.347834 Y188.723710 Z34.000000 I6.382997 J4.743628
G02 X144.071719 Y189.169827 Z34.000000 I15.537172 J9.924909
G02 X143.765751 Y189.702668 Z34.000000 I14.059130 J8.427316
G03 X143.313334 Y190.452570 Z34.000000 I-9.515836 J-5.229489
G03 X142.998459 Y190.831557 Z34.000000 I-1.871933 J-1.234966
G03 X142.607126 Y191.111960 Z34.000000 I-1.150969 J-1.193027
G03 X142.081237 Y191.325446 Z34.000000 I-1.440660 J-2.794376
G02 X141.676466 Y191.474416 Z34.000000 I1.093732 J3.596199
G02 X141.455056 Y191.598849 Z34.000000 I0.497413 J1.144272
G02 X141.286777 Y191.771988 Z34.000000 I0.376756 J0.534528
G02 X141.269848 Y191.828154 Z34.000000 I0.084709 J0.056167
G03 X141.212791 Y192.043583 Z34.000000 I-0.435223 J-0.000000
G03 X141.067001 Y192.198571 Z34.000000 I-0.393713 J-0.224285
G03 X140.868698 Y192.284879 Z34.000000 I-0.352907 J-0.539879
G03 X140.608389 Y192.322043 Z34.000000 I-0.314897 J-1.275409
G01 X140.608404 Y192.322015 Z34.000000
G00 Z18.000000

(End cutting path id: path12254)


(Start cutting path id: path12254)
(Change tool to Lathe cutter)

G00 Z18.000000
G00 X140.599598 Y192.039793

G01 Z34.000000 F5000.000000(Penetrate)
G02 X140.642032 Y192.031445 Z34.000000 I-0.005351 J-0.139221 F5000.000000
G03 X140.678973 Y192.022154 Z34.000000 I0.063116 J0.172864
G03 X140.570959 Y192.021192 Z34.000000 I-0.052003 J-0.225525
G02 X140.449668 Y192.004515 Z34.000000 I-0.137704 J0.552095
G03 X140.528687 Y192.024735 Z34.000000 I-0.008024 J0.195871
G02 X140.599598 Y192.039793 Z34.000000 I0.064840 J-0.130845
G01 X140.599598 Y192.039793 Z34.000000
G00 Z18.000000

(End cutting path id: path12254)


(Start cutting path id: path12254)
(Change tool to Lathe cutter)

G00 Z18.000000
G00 X140.723070 Y192.004515

G01 Z34.000000 F5000.000000(Penetrate)
G03 X140.840996 Y191.984979 Z34.000000 I0.284263 J1.350222 F5000.000000
G02 X140.908279 Y191.960418 Z34.000000 I-0.019004 J-0.156497
G02 X140.965837 Y191.902416 Z34.000000 I-0.107095 J-0.163836
G02 X140.987654 Y191.828126 Z34.000000 I-0.115578 J-0.074289
G03 X141.002721 Y191.782782 Z34.000000 I0.075765 J0.000000
G02 X141.022932 Y191.739932 Z34.000000 I-0.095111 J-0.071052
G03 X140.893005 Y191.901736 Z34.000000 I-0.746874 J-0.466662
G03 X140.723070 Y192.004515 Z34.000000 I-0.302294 J-0.307938
G01 X140.723070 Y192.004515 Z34.000000
G00 Z18.000000

(End cutting path id: path12254)


(Start cutting path id: path12254)
(Change tool to Lathe cutter)

G00 Z18.000000
G00 X138.183070 Y191.792848

G01 Z34.000000 F5000.000000(Penetrate)
G03 X138.372303 Y191.708666 Z34.000000 I0.408897 J0.664380 F5000.000000
G03 X138.544668 Y191.660557 Z34.000000 I1.902092 J6.481873
G03 X138.498548 Y191.651121 Z34.000000 I0.025099 J-0.240110
G02 X138.456473 Y191.642918 Z34.000000 I-0.059259 J0.191936
G02 X138.254771 Y191.654139 Z34.000000 I-0.061139 J0.719425
G02 X138.235987 Y191.660557 Z34.000000 I0.014539 J0.073253
G01 X138.235149 Y191.662361 Z34.000000
G01 X138.235987 Y191.669362 Z34.000000
G03 X138.212735 Y191.733668 Z34.000000 I-0.100549 J-0.000000
G02 X138.183070 Y191.792834 Z34.000000 I0.111995 J0.093172
G01 X138.183070 Y191.792848 Z34.000000
G00 Z18.000000

(End cutting path id: path12254)


(Start cutting path id: path12254)
(Change tool to Lathe cutter)

G00 Z18.000000
G00 X137.936126 Y191.784043

G01 Z34.000000 F5000.000000(Penetrate)
G01 X137.934689 Y191.782862 Z34.000000 F5000.000000
G02 X137.953765 Y191.669390 Z34.000000 I-0.327951 J-0.113472
G03 X137.989065 Y191.525765 Z34.000000 I0.309834 J0.000000
G03 X138.112515 Y191.404807 Z34.000000 I0.248221 J0.129859
G03 X138.263512 Y191.365486 Z34.000000 I0.169183 J0.340094
G03 X138.482932 Y191.369529 Z34.000000 I0.079270 J1.653842
G03 X138.926150 Y191.433853 Z34.000000 I-0.319411 J3.760031
G03 X140.132168 Y191.704668 Z34.000000 I-7.182581 J34.806858
G02 X140.500216 Y191.761712 Z34.000000 I0.520678 J-2.143571
G02 X140.634876 Y191.748765 Z34.000000 I0.028477 J-0.410585
G02 X140.734684 Y191.694544 Z34.000000 I-0.062453 J-0.233932
G02 X140.837723 Y191.554737 Z34.000000 I-0.291139 J-0.322447
G03 X140.994433 Y191.344305 Z34.000000 I0.581346 J0.269364
G03 X141.278695 Y191.131404 Z34.000000 I1.442967 J1.630407
G03 X141.599569 Y190.957237 Z34.000000 I1.521505 J2.420463
G03 X141.975432 Y190.813904 Z34.000000 I1.223822 J2.644746
G02 X142.433472 Y190.628175 Z34.000000 I-0.800216 J-2.631141
G02 X142.733904 Y190.417029 Z34.000000 I-0.613314 J-1.191973
G02 X142.977333 Y190.133115 Z34.000000 I-1.140319 J-1.224032
G02 X143.324807 Y189.552724 Z34.000000 I-4.884158 J-3.318294
G03 X143.911468 Y188.528882 Z34.000000 I13.691998 J7.165513
G03 X144.286126 Y188.035779 Z34.000000 I2.882529 J1.801255
G02 X144.538456 Y187.626197 Z34.000000 I-0.945509 J-0.865013
G02 X144.630084 Y187.127376 Z34.000000 I-1.311959 J-0.498821
G03 X144.707213 Y186.506132 Z34.000000 I2.540508 J-0.000000
G03 X144.974043 Y185.716265 Z34.000000 I5.138800 J1.295965
G02 X145.239013 Y184.957964 Z34.000000 I-5.404163 J-2.313804
G02 X145.547307 Y183.617237 Z34.000000 I-15.883675 J-4.358178
G03 X145.820742 Y182.264220 Z34.000000 I44.727523 J8.334971
G03 X146.138209 Y180.909668 Z34.000000 I43.463570 J9.472122
G02 X146.435803 Y179.572298 Z34.000000 I-24.697420 J-6.197506
G02 X146.746751 Y177.752307 Z34.000000 I-39.696631 J-7.718780
G03 X147.031480 Y175.922590 Z34.000000 I114.585644 J16.894068
G03 X147.214182 Y174.930085 Z34.000000 I25.311617 J4.146330
G02 X147.334475 Y173.989699 Z34.000000 I-6.239928 J-1.276096
G02 X147.355293 Y172.151960 Z34.000000 I-22.168173 J-1.170101
G03 X147.362508 Y170.312779 Z34.000000 I27.035790 J-0.813537
G03 X147.496404 Y168.386057 Z34.000000 I30.684451 J1.164371
G02 X147.582705 Y166.481779 Z34.000000 I-17.080196 J-1.728160
G02 X147.469960 Y165.272793 Z34.000000 I-7.346692 J0.075372
G03 X147.357141 Y164.013799 Z34.000000 I7.215067 J-1.281096
G03 X147.461154 Y162.591682 Z34.000000 I9.386808 J-0.028313
G02 X147.516579 Y161.244783 Z34.000000 I-6.189668 J-0.929292
G02 X147.293585 Y160.166334 Z34.000000 I-4.019056 J0.268753
G03 X146.955810 Y159.022073 Z34.000000 I10.416963 J-3.696969
G03 X146.552752 Y157.035432 Z34.000000 I30.001329 J-7.121012
G02 X146.391417 Y156.181533 Z34.000000 I-22.030462 J3.720220
G02 X146.208793 Y155.395015 Z34.000000 I-17.993514 J3.763500
G02 X145.980431 Y154.604180 Z34.000000 I-12.865413 J3.286633
G02 X145.856015 Y154.292584 Z34.000000 I-2.357356 J0.760624
G03 X145.526940 Y153.476036 Z34.000000 I6.150208 J-2.953166
G03 X145.256293 Y152.484598 Z34.000000 I9.381576 J-3.093682
G02 X144.906860 Y151.623839 Z34.000000 I-2.664188 J0.580244
G02 X144.224418 Y150.826543 Z34.000000 I-2.959160 J1.842165
G02 X143.853952 Y150.526371 Z34.000000 I-5.060190 J5.866489
G02 X143.483585 Y150.262098 Z34.000000 I-4.526421 J5.951931
G02 X143.123536 Y150.045096 Z34.000000 I-2.490480 J3.725003
G02 X142.945599 Y149.962237 Z34.000000 I-0.782443 J1.447779
G03 X142.936084 Y150.084856 Z34.000000 I-0.248762 J0.042376
G03 X142.883863 Y150.182723 Z34.000000 I-0.317181 J-0.106381
G03 X142.720477 Y150.314436 Z34.000000 I-0.355957 J-0.274360
G03 X142.495807 Y150.394390 Z34.000000 I-0.507108 J-1.069330
G03 X141.982942 Y150.442385 Z34.000000 I-0.417761 J-1.699937
G03 X141.455113 Y150.270918 Z34.000000 I0.058699 J-1.078841
G02 X141.267235 Y150.186228 Z34.000000 I-0.373466 J0.577763
G02 X141.102335 Y150.173904 Z34.000000 I-0.113075 J0.403618
G02 X140.927124 Y150.223207 Z34.000000 I0.075226 J0.603321
G02 X140.590807 Y150.403209 Z34.000000 I1.175625 J2.600721
G03 X140.304605 Y150.554592 Z34.000000 I-1.195705 J-1.914353
G03 X140.052821 Y150.641334 Z34.000000 I-0.647462 J-1.470564
G03 X139.896903 Y150.641790 Z34.000000 I-0.078867 J-0.310334
G02 X139.761779 Y150.614890 Z34.000000 I-0.356527 J1.438072
G03 X139.789180 Y150.689361 Z34.000000 I-0.370335 J0.178535
G03 X139.805876 Y150.756001 Z34.000000 I-3.192294 J0.835244
G03 X139.813966 Y150.798384 Z34.000000 I-0.447814 J0.107439
G03 X139.814682 Y150.853015 Z34.000000 I-0.210804 J0.030081
G03 X139.802066 Y150.907461 Z34.000000 I-0.248036 J-0.028788
G03 X139.761765 Y150.967668 Z34.000000 I-0.138026 J-0.048800
G03 X139.634764 Y151.013896 Z34.000000 I-0.121094 J-0.135111
G03 X139.550098 Y151.002946 Z34.000000 I0.014488 J-0.444805
G03 X139.475268 Y150.980189 Z34.000000 I0.123884 J-0.541780
G03 X139.382529 Y150.941210 Z34.000000 I0.557776 J-1.456855
G03 X139.398176 Y150.983728 Z34.000000 I-0.983369 J0.386035
G03 X139.408973 Y151.029404 Z34.000000 I-0.224364 J0.077149
G03 X139.414370 Y151.071004 Z34.000000 I-4.469821 J0.601007
G03 X139.408973 Y151.126418 Z34.000000 I-0.125771 J0.015721
G03 X139.379230 Y151.180483 Z34.000000 I-0.159770 J-0.052683
G03 X139.329598 Y151.223432 Z34.000000 I-0.149880 J-0.123048
G03 X139.220618 Y151.251281 Z34.000000 I-0.100628 J-0.166625
G03 X139.144390 Y151.241071 Z34.000000 I0.018311 J-0.426372
G03 X139.068736 Y151.218031 Z34.000000 I0.121563 J-0.534905
G03 X138.976820 Y151.179335 Z34.000000 I0.583690 J-1.514935
G02 X138.997259 Y151.226127 Z34.000000 I0.817665 J-0.329282
G03 X139.012098 Y151.276349 Z34.000000 I-0.154916 J0.073078
G03 X139.013739 Y151.317949 Z34.000000 I-0.219252 J0.029480
G03 X139.003293 Y151.373362 Z34.000000 I-0.214685 J-0.011780
G03 X138.973549 Y151.427427 Z34.000000 I-0.159770 J-0.052683
G03 X138.923918 Y151.470376 Z34.000000 I-0.149880 J-0.123048
G03 X138.814938 Y151.498225 Z34.000000 I-0.100631 J-0.166640
G03 X138.738710 Y151.488015 Z34.000000 I0.018301 J-0.426329
G03 X138.663053 Y151.464975 Z34.000000 I0.121543 J-0.534849
G03 X138.571140 Y151.426279 Z34.000000 I0.583764 J-1.515090
G02 X138.591235 Y151.469118 Z34.000000 I0.358911 J-0.142231
G03 X138.606418 Y151.514474 Z34.000000 I-0.119248 J0.065136
G03 X138.600873 Y151.603853 Z34.000000 I-0.214581 J0.031550
G03 X138.527043 Y151.708501 Z34.000000 I-0.182736 J-0.050554
G03 X138.418087 Y151.742808 Z34.000000 I-0.108611 J-0.154770
G03 X138.341835 Y151.734946 Z34.000000 I0.000693 J-0.380395
G03 X138.275873 Y151.718377 Z34.000000 I0.161020 J-0.780625
G03 X138.200723 Y151.690848 Z34.000000 I0.182838 J-0.615464
G03 X138.198046 Y151.730573 Z34.000000 I-0.430558 J-0.009064
G03 X138.191918 Y151.761404 Z34.000000 I-0.189097 J-0.021562
G03 X138.168646 Y151.828025 Z34.000000 I-0.605136 J-0.174014
G03 X138.130182 Y151.911334 Z34.000000 I-1.049784 J-0.434147
G03 X137.903968 Y152.122981 Z34.000000 I-0.406953 J-0.208247
G03 X137.609835 Y152.149459 Z34.000000 I-0.187465 J-0.435520
G03 X137.597179 Y152.196388 Z34.000000 I-0.233587 J-0.037825
G03 X137.583391 Y152.228834 Z34.000000 I-0.463491 J-0.177806
G03 X137.544345 Y152.300708 Z34.000000 I-0.622524 J-0.291647
G03 X137.477557 Y152.405223 Z34.000000 I-4.600766 J-2.866392
G03 X137.332416 Y152.615083 Z34.000000 I-4.262659 J-2.792980
G03 X137.089502 Y152.934390 Z34.000000 I-8.009061 J-5.840880
G03 X136.837656 Y153.241731 Z34.000000 I-9.799467 J-7.773173
G03 X136.648529 Y153.454737 Z34.000000 I-4.583730 J-3.879384
G03 X136.550422 Y153.556526 Z34.000000 I-3.011341 J-2.804254
G03 X136.480960 Y153.622307 Z34.000000 I-1.190479 J-1.187541
G03 X136.444168 Y153.651688 Z34.000000 I-0.280676 J-0.313740
G03 X136.410404 Y153.675223 Z34.000000 I-1.299468 J-1.828228
G03 X136.382410 Y153.691622 Z34.000000 I-0.130698 J-0.191020
G03 X136.331029 Y153.710501 Z34.000000 I-0.113046 J-0.228307
G03 X136.326844 Y153.723668 Z34.000000 I-0.052626 J-0.009482
G02 X136.322224 Y153.736945 Z34.000000 I0.062199 J0.029082
G03 X136.302974 Y153.808708 Z34.000000 I-1.262429 J-0.300183
G03 X136.269307 Y153.904515 Z34.000000 I-1.030831 J-0.308414
G03 X136.184246 Y154.098592 Z34.000000 I-3.530767 J-1.431809
G03 X136.031182 Y154.407223 Z34.000000 I-7.983057 J-3.766873
G03 X135.697565 Y155.019791 Z34.000000 I-16.465057 J-8.570103
G03 X135.175696 Y155.897709 Z34.000000 I-23.576465 J-13.420682
G03 X133.857244 Y157.796335 Z34.000000 I-18.959382 J-11.758763
G03 X130.545488 Y161.965487 Z34.000000 I-168.646357 J-130.563922
G03 X129.048554 Y163.776756 Z34.000000 I-132.015606 J-107.580881
G03 X127.952571 Y165.052293 Z34.000000 I-52.545122 J-44.039859
G03 X127.405201 Y165.661608 Z34.000000 I-31.356535 J-27.618223
G03 X127.061807 Y166.022432 Z34.000000 I-9.688431 J-8.876598
G03 X126.886086 Y166.193676 Z34.000000 I-4.666347 J-4.612554
G03 X126.770766 Y166.295834 Z34.000000 I-1.827800 J-1.947129
G03 X126.708035 Y166.347244 Z34.000000 I-2.719885 J-3.254826
G03 X126.656113 Y166.384029 Z34.000000 I-0.329065 J-0.409449
G03 X126.610183 Y166.408921 Z34.000000 I-0.233647 J-0.376298
G03 X126.523821 Y166.428126 Z34.000000 I-0.086362 J-0.184573
G03 X126.482718 Y166.422073 Z34.000000 I-0.000000 J-0.142580
G03 X126.426807 Y166.392848 Z34.000000 I0.048347 J-0.160590
G03 X126.395692 Y166.351019 Z34.000000 I0.062957 J-0.079320
G03 X126.382710 Y166.313473 Z34.000000 I0.398249 J-0.158713
G01 X126.378279 Y166.317923 Z34.000000
G01 X126.373905 Y166.322279 Z34.000000
G02 X126.363953 Y166.349199 Z34.000000 I0.170746 J0.078423
G01 X126.356266 Y166.348723 Z34.000000
G03 X126.334670 Y166.529167 Z34.000000 I-0.332892 J0.051673
G03 X126.232794 Y166.666223 Z34.000000 I-0.322732 J-0.133502
G03 X126.082496 Y166.740968 Z34.000000 I-0.239870 J-0.293851
G03 X125.897655 Y166.754417 Z34.000000 I-0.132619 J-0.545738
G02 X125.800038 Y166.769141 Z34.000000 I-0.019090 J0.204383
G02 X125.765363 Y166.789695 Z34.000000 I0.054280 J0.131099
G01 X125.750315 Y166.811418 Z34.000000
G02 X125.747724 Y166.842612 Z34.000000 I0.063764 J0.021000
G03 X125.729941 Y167.022473 Z34.000000 I-0.358938 J0.055320
G03 X125.633072 Y167.160112 Z34.000000 I-0.303797 J-0.110903
G03 X125.482710 Y167.235207 Z34.000000 I-0.234723 J-0.281899
G03 X125.297933 Y167.248306 Z34.000000 I-0.132646 J-0.561326
G02 X125.240241 Y167.246387 Z34.000000 I-0.045472 J0.498944
G02 X125.218558 Y167.248306 Z34.000000 I0.004159 J0.170478
G01 X125.222727 Y167.249937 Z34.000000
G02 X125.245002 Y167.407056 Z34.000000 I0.614199 J-0.006936
G02 X125.380883 Y167.783920 Z34.000000 I2.557441 J-0.709177
G02 X126.012294 Y169.118028 Z34.000000 I32.929932 J-14.768696
G03 X126.291674 Y169.705159 Z34.000000 I-15.848154 J7.901231
G03 X126.497363 Y170.194001 Z34.000000 I-8.784968 J3.984126
G03 X126.588186 Y170.437346 Z34.000000 I-8.915016 J3.465926
G03 X126.647294 Y170.617334 Z34.000000 I-3.387384 J1.212116
G03 X126.689179 Y170.792998 Z34.000000 I-1.520990 J0.455494
G03 X126.700210 Y170.917195 Z34.000000 I-0.693651 J0.124197
G02 X126.709635 Y171.026560 Z34.000000 I0.639238 J0.000000
G02 X126.788405 Y171.428723 Z34.000000 I9.397543 J-1.631852
G02 X126.878599 Y171.815401 Z34.000000 I13.605637 J-2.969712
G02 X127.026530 Y172.390042 Z34.000000 I33.688167 J-8.366033
G02 X127.349418 Y173.553973 Z34.000000 I57.797664 J-15.407029
G02 X127.811460 Y175.106431 Z34.000000 I90.834487 J-26.189134
G02 X128.905533 Y178.509286 Z34.000000 I129.054691 J-39.615865
G02 X129.619446 Y180.406917 Z34.000000 I27.060348 J-9.097342
G02 X130.569650 Y182.530818 Z34.000000 I42.397754 J-17.693657
G02 X131.330419 Y184.014070 Z34.000000 I26.940584 J-12.881258
G02 X131.741190 Y184.725169 Z34.000000 I16.369005 J-8.981478
G02 X132.027155 Y185.160598 Z34.000000 I6.311688 J-3.833539
G02 X132.178435 Y185.364958 Z34.000000 I4.971979 J-3.522400
G02 X132.282919 Y185.486917 Z34.000000 I1.264265 J-0.977371
G02 X132.412001 Y185.602705 Z34.000000 I0.777808 J-0.737267
G02 X132.441669 Y185.619209 Z34.000000 I0.072341 J-0.095126
G03 X133.088369 Y185.943451 Z34.000000 I-1.299600 J3.399095
G03 X133.667571 Y186.421778 Z34.000000 I-1.598679 J2.525664
G03 X134.148269 Y187.021012 Z34.000000 I-3.571581 J3.357497
G03 X134.893474 Y188.203306 Z34.000000 I-16.400182 J11.163110
G02 X136.098850 Y190.019279 Z34.000000 I16.023330 J-9.327672
G02 X137.054238 Y191.131362 Z34.000000 I9.026903 J-6.788563
G02 X137.592374 Y191.616110 Z34.000000 I4.120659 J-4.033409
G02 X137.830349 Y191.757542 Z34.000000 I0.642851 J-0.810742
G02 X137.935774 Y191.782349 Z34.000000 I0.124567 J-0.292965
G01 X137.936182 Y191.783987 Z34.000000
G01 X137.936126 Y191.784043 Z34.000000
G00 Z18.000000

(End cutting path id: path12254)


(Start cutting path id: path12254)
(Change tool to Lathe cutter)

G00 Z18.000000
G00 X134.011473 Y185.610432

G01 Z34.000000 F5000.000000(Penetrate)
G03 X133.958251 Y185.609688 Z34.000000 I-0.022935 J-0.263491 F5000.000000
G03 X133.923279 Y185.601627 Z34.000000 I0.018419 J-0.159788
G03 X133.857262 Y185.570621 Z34.000000 I0.120386 J-0.342111
G03 X133.799807 Y185.531071 Z34.000000 I0.284400 J-0.474664
G03 X133.694755 Y185.433272 Z34.000000 I0.530232 J-0.674872
G03 X133.570501 Y185.284127 Z34.000000 I1.678587 J-1.524776
G03 X133.468350 Y185.123418 Z34.000000 I0.885672 J-0.675778
G03 X133.420570 Y184.984265 Z34.000000 I0.436818 J-0.227765
G03 X133.415991 Y184.907556 Z34.000000 I0.313157 J-0.057185
G03 X133.447015 Y184.807877 Z34.000000 I0.218861 J0.013448
G03 X133.529928 Y184.737569 Z34.000000 I0.145729 J0.087814
G03 X133.623404 Y184.719682 Z34.000000 I0.093476 J0.235301
G03 X133.768088 Y184.753809 Z34.000000 I-0.000000 J0.323763
G03 X133.879167 Y184.825515 Z34.000000 I-0.269219 J0.538934
G03 X133.978826 Y184.918941 Z34.000000 I-0.616987 J0.758020
G03 X134.064376 Y185.028363 Z34.000000 I-0.605719 J0.561724
G03 X134.129371 Y185.150410 Z34.000000 I-0.643281 J0.420904
G03 X134.170209 Y185.275307 Z34.000000 I-0.727820 J0.307103
G03 X134.183306 Y185.402104 Z34.000000 I-0.478468 J0.113497
G03 X134.126112 Y185.548710 Z34.000000 I-0.232628 J-0.006294
G03 X134.068685 Y185.593837 Z34.000000 I-0.147369 J-0.128431
G03 X134.011459 Y185.610446 Z34.000000 I-0.070516 J-0.136073
G01 X134.011473 Y185.610432 Z34.000000
G00 Z18.000000

(End cutting path id: path12254)


(Start cutting path id: path12254)
(Change tool to Lathe cutter)

G00 Z18.000000
G00 X94.262223 Y184.851946

G01 Z34.000000 F5000.000000(Penetrate)
G03 X94.201199 Y184.750832 Z34.000000 I25.860189 J-15.676219 F5000.000000
G02 X94.077014 Y184.569723 Z34.000000 I-1.569498 J0.943054
G03 X93.828001 Y184.205198 Z34.000000 I2.822540 J-2.195438
G03 X93.724237 Y183.934723 Z34.000000 I0.730256 J-0.435296
G03 X93.739540 Y183.713387 Z34.000000 I0.416849 J-0.082375
G03 X93.847709 Y183.520209 Z34.000000 I0.593202 J0.205287
G03 X93.829168 Y183.529212 Z34.000000 I-0.059234 J-0.098400
G02 X93.812431 Y183.537848 Z34.000000 I0.029282 J0.077284
G02 X93.728573 Y183.620844 Z34.000000 I0.173141 J0.258803
G01 X93.724237 Y183.634862 Z34.000000
G03 X93.656596 Y183.810203 Z34.000000 I-0.261083 J0.000000
G03 X93.521389 Y183.908265 Z34.000000 I-0.301125 J-0.272946
G03 X93.366663 Y183.950410 Z34.000000 I-0.212585 J-0.475358
G03 X93.177431 Y183.952362 Z34.000000 I-0.104243 J-0.932376
G03 X93.000521 Y183.923850 Z34.000000 I0.117779 J-1.293896
G03 X92.868751 Y183.872987 Z34.000000 I0.115143 J-0.494420
G03 X92.810174 Y183.832796 Z34.000000 I0.184935 J-0.332308
G03 X92.754098 Y183.767154 Z34.000000 I0.164409 J-0.197226
G03 X92.724890 Y183.675806 Z34.000000 I0.181712 J-0.108444
G03 X92.745292 Y183.573126 Z34.000000 I0.190764 J-0.015463
G02 X92.734612 Y183.642836 Z34.000000 I0.099530 J0.050923
G02 X92.736487 Y183.652501 Z34.000000 I0.212546 J-0.036231
G02 X92.731076 Y183.640319 Z34.000000 I-0.214320 J0.087908
G02 X92.710043 Y183.599584 Z34.000000 I-0.692794 J0.331921
G03 X92.705897 Y183.591093 Z34.000000 I0.153778 J-0.080332
G02 X92.701238 Y183.581946 Z34.000000 I-0.105686 J0.048077
G02 X92.707370 Y183.602362 Z34.000000 I0.656080 J-0.185929
G03 X92.710043 Y183.661321 Z34.000000 I-0.108545 J0.034461
G03 X92.695601 Y183.696055 Z34.000000 I-0.103837 J-0.022803
G03 X92.657126 Y183.740696 Z34.000000 I-0.178235 J-0.114718
G03 X92.612153 Y183.768161 Z34.000000 I-0.101732 J-0.116025
G03 X92.577751 Y183.775973 Z34.000000 I-0.042467 J-0.107359
G03 X92.511167 Y183.773673 Z34.000000 I-0.022332 J-0.318379
G03 X92.489557 Y183.767168 Z34.000000 I0.010247 J-0.073189
G03 X92.453838 Y183.744207 Z34.000000 I0.071363 J-0.150276
G02 X92.427821 Y183.723071 Z34.000000 I-0.632872 J0.752455
G03 X92.368803 Y183.673142 Z34.000000 I0.638515 J-0.814585
G03 X92.269071 Y183.581960 Z34.000000 I40.792490 J-44.717932
G02 X92.183630 Y183.525874 Z34.000000 I-0.215518 J0.235194
G02 X91.916293 Y183.440849 Z34.000000 I-0.511420 J1.145219
G02 X91.789919 Y183.431926 Z34.000000 I-0.098582 J0.496859
G03 X91.651710 Y183.432043 Z34.000000 I-0.070187 J-1.277310
G02 X91.754136 Y183.462816 Z34.000000 I0.498212 J-1.472450
G03 X91.872196 Y183.502599 Z34.000000 I-0.234885 J0.892110
G03 X92.330792 Y183.720861 Z34.000000 I-1.883221 J4.547801
G03 X92.992265 Y184.111140 Z34.000000 I-4.909545 J9.076735
G02 X93.596458 Y184.491481 Z34.000000 I22.835104 J-35.604876
G02 X93.953585 Y184.702043 Z34.000000 I5.276156 J-8.540524
G02 X94.156035 Y184.805613 Z34.000000 I1.421014 J-2.528043
G02 X94.262265 Y184.851974 Z34.000000 I1.099535 J-2.374557
G01 X94.262223 Y184.851946 Z34.000000
G00 Z18.000000

(End cutting path id: path12254)


(Start cutting path id: path12254)
(Change tool to Lathe cutter)

G00 Z18.000000
G00 X135.457848 Y184.754932

G01 Z34.000000 F5000.000000(Penetrate)
G03 X135.408340 Y184.742946 Z34.000000 I0.017692 J-0.181326 F5000.000000
G03 X135.352015 Y184.702015 Z34.000000 I0.051772 J-0.130463
G03 X135.321548 Y184.606648 Z34.000000 I0.103346 J-0.085565
G03 X135.325570 Y184.578543 Z34.000000 I0.205278 J0.015036
G03 X135.335246 Y184.545259 Z34.000000 I0.236155 J0.050605
G03 X135.343209 Y184.525626 Z34.000000 I0.324862 J0.120329
G03 X135.358087 Y184.493345 Z34.000000 I1.012575 J0.447111
G03 X135.378487 Y184.455071 Z34.000000 I0.468150 J0.224945
G03 X135.427399 Y184.376158 Z34.000000 I1.687452 J0.991315
G02 X135.519598 Y184.234584 Z34.000000 I-52.634234 J-34.378525
G03 X135.646474 Y184.049443 Z34.000000 I3.781655 J2.455488
G03 X135.748904 Y183.917084 Z34.000000 I2.059920 J1.488321
G03 X135.801970 Y183.855862 Z34.000000 I1.381513 J1.143854
G03 X135.845918 Y183.811251 Z34.000000 I0.563476 J0.511147
G03 X135.870227 Y183.789102 Z34.000000 I0.861121 J0.920684
G03 X135.898834 Y183.767154 Z34.000000 I0.167597 J0.188831
G03 X135.924282 Y183.754049 Z34.000000 I0.073728 J0.111908
G03 X135.995848 Y183.740710 Z34.000000 I0.071567 J0.185308
G03 X136.047700 Y183.741977 Z34.000000 I-0.000000 J1.061510
G03 X136.110501 Y183.758349 Z34.000000 I-0.007744 J0.158343
G03 X136.163594 Y183.803906 Z34.000000 I-0.062776 J0.126875
G03 X136.198695 Y183.873001 Z34.000000 I-0.224280 J0.157403
G03 X136.204646 Y183.999147 Z34.000000 I-0.215530 J0.073380
G03 X136.172251 Y184.084668 Z34.000000 I-0.347889 J-0.082881
G03 X136.057583 Y184.247225 Z34.000000 I-0.710521 J-0.379482
G03 X135.810654 Y184.499182 Z34.000000 I-3.510280 J-3.193250
G02 X135.692047 Y184.614151 Z34.000000 I4.931442 J5.206129
G03 X135.625446 Y184.675571 Z34.000000 I-0.876565 J-0.883701
G02 X135.593584 Y184.704695 Z34.000000 I0.441632 J0.515132
G03 X135.563710 Y184.728487 Z34.000000 I-0.133735 J-0.137270
G03 X135.546925 Y184.735838 Z34.000000 I-0.031139 J-0.048266
G02 X135.510793 Y184.746126 Z34.000000 I0.189237 J0.733184
G03 X135.494089 Y184.751288 Z34.000000 I-0.686807 J-2.193047
G03 X135.457876 Y184.754932 Z34.000000 I-0.027302 J-0.089561
G01 X135.457848 Y184.754932 Z34.000000
G00 Z18.000000

(End cutting path id: path12254)


(Start cutting path id: path12254)
(Change tool to Lathe cutter)

G00 Z18.000000
G00 X132.185834 Y184.472709

G01 Z34.000000 F5000.000000(Penetrate)
G01 X132.097640 Y184.252223 Z34.000000 F5000.000000
G01 X130.783542 Y180.944932 Z34.000000
G03 X129.404906 Y177.106827 Z34.000000 I55.640288 J-22.152491
G03 X128.384654 Y173.554237 Z34.000000 I56.531451 J-18.157810
G03 X127.980954 Y171.816069 Z34.000000 I42.563566 J-10.801596
G03 X127.758473 Y170.573265 Z34.000000 I20.089735 J-4.237688
G03 X127.647264 Y169.343131 Z34.000000 I10.871435 J-1.602912
G03 X127.723195 Y168.791737 Z34.000000 I1.636623 J-0.055551
G02 X127.729626 Y168.760310 Z34.000000 I-0.145203 J-0.046082
G03 X127.732001 Y168.738820 Z34.000000 I0.783925 J0.075762
G02 X127.692090 Y168.752191 Z34.000000 I0.012388 J0.103232
G01 X127.652626 Y168.756459 Z34.000000
G03 X127.562516 Y168.700775 Z34.000000 I0.067907 J-0.210637
G03 X127.511514 Y168.632987 Z34.000000 I0.232573 J-0.228064
G03 X127.453395 Y168.475201 Z34.000000 I0.455074 J-0.257220
G03 X127.432139 Y168.253751 Z34.000000 I1.142941 J-0.221450
G03 X127.440415 Y168.001276 Z34.000000 I3.855416 J-0.000000
G03 X127.458584 Y167.848057 Z34.000000 I1.467115 J0.096282
G03 X127.472747 Y167.777409 Z34.000000 I1.299301 J0.223733
G03 X127.493861 Y167.715765 Z34.000000 I0.303522 J0.069527
G03 X127.530423 Y167.654714 Z34.000000 I0.308583 J0.143328
G03 X127.617334 Y167.592293 Z34.000000 I0.143083 J0.107503
G03 X127.731791 Y167.591109 Z34.000000 I0.059082 J0.178728
G03 X127.802542 Y167.627570 Z34.000000 I-0.066393 J0.215709
G03 X127.850895 Y167.676733 Z34.000000 I-0.149215 J0.195116
G03 X127.890736 Y167.733404 Z34.000000 I-1.185796 J0.876005
G03 X127.965609 Y167.859817 Z34.000000 I-1.120766 J0.749189
G03 X128.067125 Y168.077362 Z34.000000 I-2.442657 J1.272315
G03 X128.389126 Y168.986556 Z34.000000 I-8.468014 J3.510657
G03 X129.143098 Y171.684515 Z34.000000 I-88.158763 J26.091167
G02 X130.995724 Y177.662155 Z34.000000 I69.963046 J-18.407467
G02 X132.741431 Y181.756320 Z34.000000 I35.387018 J-12.669372
G01 X133.358792 Y182.999862 Z34.000000
G01 X133.402889 Y183.088057 Z34.000000
G01 X133.341153 Y183.158612 Z34.000000
G01 X132.838445 Y183.731876 Z34.000000
G01 X132.335736 Y184.296321 Z34.000000
G01 X132.185806 Y184.472709 Z34.000000
G01 X132.185834 Y184.472709 Z34.000000
G00 Z18.000000

(End cutting path id: path12254)


(Start cutting path id: path12254)
(Change tool to Lathe cutter)

G00 Z18.000000
G00 X87.039098 Y184.402154

G01 Z34.000000 F5000.000000(Penetrate)
G03 X87.034971 Y184.385285 Z34.000000 I0.234913 J-0.066408 F5000.000000
G02 X87.030292 Y184.366876 Z34.000000 I-0.208934 J0.043300
G02 X86.944475 Y184.111856 Z34.000000 I-4.208304 J1.274191
G02 X86.783348 Y183.705418 Z34.000000 I-9.224194 J3.421659
G03 X86.648581 Y183.357855 Z34.000000 I5.771240 J-2.437695
G03 X86.562862 Y183.079237 Z34.000000 I3.297905 J-1.167127
G02 X86.560516 Y183.098526 Z34.000000 I0.268358 J0.042428
G03 X86.554057 Y183.123334 Z34.000000 I-0.075733 J-0.006473
G03 X86.527548 Y183.163788 Z34.000000 I-0.145858 J-0.066666
G03 X86.474682 Y183.202709 Z34.000000 I-0.120161 J-0.107848
G03 X86.359516 Y183.214493 Z34.000000 I-0.074900 J-0.163351
G03 X86.307112 Y183.193904 Z34.000000 I0.042667 J-0.185580
G03 X86.219569 Y183.125160 Z34.000000 I0.196024 J-0.339745
G03 X86.113084 Y183.008696 Z34.000000 I2.583915 J-2.469409
G03 X86.034029 Y182.914221 Z34.000000 I2.124514 J-1.858079
G03 X85.927876 Y182.779390 Z34.000000 I8.378440 J-6.705600
G02 X86.193118 Y183.120391 Z34.000000 I25.868501 J-19.847771
G03 X86.386487 Y183.379112 Z34.000000 I-4.903004 J3.866134
G03 X86.551054 Y183.618218 Z34.000000 I-9.002156 J6.371999
G03 X86.651070 Y183.775987 Z34.000000 I-3.150972 J2.108123
G03 X86.740539 Y183.926931 Z34.000000 I-14.164130 J8.497434
G03 X86.783362 Y184.031751 Z34.000000 I-0.345464 J0.202294
G03 X86.785889 Y184.060744 Z34.000000 I-0.088925 J0.022358
G02 X86.783362 Y184.102307 Z34.000000 I1.777772 J0.128961
G03 X86.776489 Y184.144303 Z34.000000 I-0.188206 J-0.009239
G03 X86.739265 Y184.208140 Z34.000000 I-0.142303 J-0.040208
G02 X86.734908 Y184.212701 Z34.000000 I0.122113 J0.121013
G01 X86.730460 Y184.216946 Z34.000000
G03 X86.840341 Y184.296313 Z34.000000 I-2.189435 J3.146940
G02 X86.933307 Y184.358057 Z34.000000 I0.587926 J-0.784366
G02 X86.993033 Y184.384944 Z34.000000 I0.155872 J-0.266464
G03 X87.039140 Y184.402154 Z34.000000 I-0.189190 J0.577235
G01 X87.039098 Y184.402154 Z34.000000
G00 Z18.000000

(End cutting path id: path12254)


(Start cutting path id: path12254)
(Change tool to Lathe cutter)

G00 Z18.000000
G00 X100.038959 Y184.340418

G01 Z34.000000 F5000.000000(Penetrate)
G03 X100.031441 Y184.308325 Z34.000000 I0.168276 J-0.056348 F5000.000000
G02 X100.021320 Y184.269862 Z34.000000 I-0.164297 J0.022669
G02 X99.924045 Y184.050547 Z34.000000 I-2.786286 J1.104603
G02 X99.756737 Y183.740696 Z34.000000 I-4.202100 J2.068878
G03 X99.577509 Y183.426752 Z34.000000 I11.158291 J-6.578316
G03 X99.448056 Y183.176251 Z34.000000 I4.437933 J-2.452112
G03 X99.395777 Y183.060806 Z34.000000 I2.385560 J-1.149867
G03 X99.359862 Y182.973404 Z34.000000 I3.810858 J-1.617020
G02 X99.347562 Y182.991115 Z34.000000 I0.063089 J0.056938
G03 X99.333417 Y183.008682 Z34.000000 I-0.050818 J-0.026442
G03 X99.202699 Y183.068878 Z34.000000 I-0.177243 J-0.212862
G03 X99.060015 Y183.061598 Z34.000000 I-0.055045 J-0.323067
G03 X98.830312 Y182.951703 Z34.000000 I0.194999 J-0.702596
G03 X98.398556 Y182.620626 Z34.000000 I4.887158 J-6.820381
G03 X98.129757 Y182.361407 Z34.000000 I1.469243 J-1.792517
G03 X97.393140 Y181.500557 Z34.000000 I28.122424 J-24.809552
G03 X96.958922 Y180.967004 Z34.000000 I27.669057 J-22.961189
G03 X96.414181 Y180.283473 Z34.000000 I511.711563 J-408.368086
G02 X96.543342 Y180.473528 Z34.000000 I3.147154 J-1.999886
G03 X96.617029 Y180.592154 Z34.000000 I-0.786875 J0.570978
G03 X96.642942 Y180.644882 Z34.000000 I-0.951102 J0.500161
G03 X96.661126 Y180.689168 Z34.000000 I-0.546304 J0.250185
G03 X96.665965 Y180.708205 Z34.000000 I-0.092608 J0.033676
G02 X96.669931 Y180.733265 Z34.000000 I1.598883 J-0.240187
G03 X96.672983 Y180.761805 Z34.000000 I-0.242609 J0.040377
G03 X96.661126 Y180.830279 Z34.000000 I-0.159312 J0.007676
G03 X96.631671 Y180.859436 Z34.000000 I-0.049322 J-0.020369
G02 X96.581751 Y180.883195 Z34.000000 I0.164210 J0.409345
G02 X97.155912 Y181.490339 Z34.000000 I110.354880 J-103.784943
G03 X97.613626 Y181.976807 Z34.000000 I-45.755591 J43.509659
G03 X98.392105 Y182.819742 Z34.000000 I-105.033135 J97.782652
G03 X98.548487 Y182.999862 Z34.000000 I-3.294100 J3.017903
G03 X98.644035 Y183.124793 Z34.000000 I-1.718688 J1.413463
G03 X98.698417 Y183.202709 Z34.000000 I-4.722338 J3.353965
G02 X98.722167 Y183.233696 Z34.000000 I0.304580 J-0.208843
G03 X98.742515 Y183.264446 Z34.000000 I-0.114987 J0.098200
G02 X98.784135 Y183.254665 Z34.000000 I-0.026255 J-0.205179
G03 X98.830709 Y183.246807 Z34.000000 I0.046574 J0.134079
G03 X98.971556 Y183.280337 Z34.000000 I0.000000 J0.312586
G03 X99.086473 Y183.352640 Z34.000000 I-0.325277 J0.644464
G03 X99.188193 Y183.445212 Z34.000000 I-0.508387 J0.660796
G03 X99.271681 Y183.564307 Z34.000000 I-0.385590 J0.359120
G03 X99.298018 Y183.636484 Z34.000000 I-0.278344 J0.142457
G03 X99.306959 Y183.723057 Z34.000000 I-0.343434 J0.079219
G03 X99.284067 Y183.816197 Z34.000000 I-0.217690 J-0.004121
G03 X99.209945 Y183.890626 Z34.000000 I-0.149266 J-0.074528
G03 X99.167123 Y183.899247 Z34.000000 I-0.037065 J-0.073445
G02 X99.130570 Y183.899431 Z34.000000 I-0.017052 J0.243079
G02 X99.544583 Y184.120805 Z34.000000 I9.897355 J-18.012215
G02 X99.836126 Y184.261029 Z34.000000 I2.385688 J-4.586954
G02 X99.956657 Y184.310327 Z34.000000 I0.916936 J-2.069872
G02 X100.038973 Y184.340404 Z34.000000 I1.681864 J-4.475305
G01 X100.038959 Y184.340418 Z34.000000
G00 Z18.000000

(End cutting path id: path12254)


(Start cutting path id: path12254)
(Change tool to Lathe cutter)

G00 Z18.000000
G00 X135.255001 Y184.022918

G01 Z34.000000 F5000.000000(Penetrate)
G03 X135.205492 Y184.010932 Z34.000000 I0.017692 J-0.181326 F5000.000000
G03 X135.149167 Y183.970001 Z34.000000 I0.051772 J-0.130463
G03 X135.118007 Y183.867826 Z34.000000 I0.106772 J-0.088402
G03 X135.122723 Y183.837709 Z34.000000 I0.271841 J0.027145
G03 X135.132585 Y183.809964 Z34.000000 I0.110687 J0.023719
G02 X135.140362 Y183.793612 Z34.000000 I-0.287752 J-0.146876
G03 X135.155240 Y183.761332 Z34.000000 I1.012575 J0.447111
G03 X135.175640 Y183.723057 Z34.000000 I0.468150 J0.224945
G03 X135.224519 Y183.640996 Z34.000000 I6.789193 J3.988398
G03 X135.316751 Y183.493751 Z34.000000 I4.558983 J2.753159
G03 X135.443707 Y183.313721 Z34.000000 I2.412022 J1.566164
G03 X135.546057 Y183.185071 Z34.000000 I3.346706 J2.557475
G03 X135.599123 Y183.123848 Z34.000000 I1.381513 J1.143854
G03 X135.643070 Y183.079237 Z34.000000 I0.563476 J0.511147
G03 X135.667380 Y183.057088 Z34.000000 I0.861121 J0.920684
G03 X135.695987 Y183.035140 Z34.000000 I0.167597 J0.188831
G03 X135.721434 Y183.022035 Z34.000000 I0.073728 J0.111908
G03 X135.793001 Y183.008696 Z34.000000 I0.071567 J0.185308
G03 X135.844852 Y183.009963 Z34.000000 I-0.000000 J1.061510
G03 X135.907654 Y183.026335 Z34.000000 I-0.007744 J0.158343
G03 X135.965379 Y183.071540 Z34.000000 I-0.079904 J0.161492
G03 X136.004668 Y183.140987 Z34.000000 I-0.164176 J0.138718
G03 X136.005681 Y183.267147 Z34.000000 I-0.189765 J0.064608
G03 X135.969390 Y183.352654 Z34.000000 I-0.495709 J-0.159934
G03 X135.854722 Y183.515211 Z34.000000 I-0.710521 J-0.379482
G03 X135.607793 Y183.767168 Z34.000000 I-3.510280 J-3.193250
G02 X135.489186 Y183.882137 Z34.000000 I4.931442 J5.206129
G03 X135.422584 Y183.943557 Z34.000000 I-0.876565 J-0.883701
G03 X135.390666 Y183.967934 Z34.000000 I-0.231537 J-0.270071
G03 X135.360848 Y183.987654 Z34.000000 I-0.874732 J-1.290278
G03 X135.344107 Y183.998008 Z34.000000 I-0.279686 J-0.433513
G03 X135.307932 Y184.014098 Z34.000000 I-0.086951 J-0.146779
G03 X135.291228 Y184.019260 Z34.000000 I-0.686807 J-2.193047
G03 X135.255015 Y184.022904 Z34.000000 I-0.027302 J-0.089561
G01 X135.255001 Y184.022918 Z34.000000
G00 Z18.000000

(End cutting path id: path12254)


(Start cutting path id: path12254)
(Change tool to Lathe cutter)

G00 Z18.000000
G00 X132.274029 Y183.934723

G01 Z34.000000 F5000.000000(Penetrate)
G01 X132.388681 Y183.811251 Z34.000000 F5000.000000
G02 X132.366350 Y183.812391 Z34.000000 I-0.007715 J0.068152
G01 X132.344584 Y183.811251 Z34.000000
G03 X132.256243 Y183.763963 Z34.000000 I0.091277 J-0.276681
G03 X132.185834 Y183.696598 Z34.000000 I0.303878 J-0.388087
G01 X132.274029 Y183.934723 Z34.000000
G01 X132.274029 Y183.934723 Z34.000000
G00 Z18.000000

(End cutting path id: path12254)


(Start cutting path id: path12254)
(Change tool to Lathe cutter)

G00 Z18.000000
G00 X92.427778 Y183.661321

G01 Z34.000000 F5000.000000(Penetrate)
G01 X92.434739 Y183.665246 Z34.000000 F5000.000000
G01 X92.436584 Y183.661321 Z34.000000
G02 X92.433895 Y183.655645 Z34.000000 I-0.118379 J0.052613
G02 X92.427778 Y183.643682 Z34.000000 I-1.016801 J0.512295
G01 X92.427757 Y183.655600 Z34.000000
G01 X92.427778 Y183.661321 Z34.000000
G01 X92.427778 Y183.661321 Z34.000000
G00 Z18.000000

(End cutting path id: path12254)


(Start cutting path id: path12254)
(Change tool to Lathe cutter)

G00 Z18.000000
G00 X98.601389 Y183.652515

G01 Z34.000000 F5000.000000(Penetrate)
G03 X98.557878 Y183.606187 Z34.000000 I1.123708 J-1.098980 F5000.000000
G03 X98.522014 Y183.546682 Z34.000000 I0.135585 J-0.122277
G01 X98.520920 Y183.526064 Z34.000000
G02 X98.522014 Y183.502585 Z34.000000 I-0.057896 J-0.014465
G01 X98.509038 Y183.502665 Z34.000000
G01 X98.495570 Y183.502585 Z34.000000
G03 X98.410370 Y183.471663 Z34.000000 I0.381998 J-1.185392
G03 X98.275084 Y183.414390 Z34.000000 I1.729698 J-4.274174
G02 X98.089304 Y183.366724 Z34.000000 I-0.235818 J0.533232
G03 X97.842931 Y183.326196 Z34.000000 I0.139075 J-1.614555
G03 X98.197033 Y183.458102 Z34.000000 I-0.854726 J2.835748
G03 X98.601404 Y183.652515 Z34.000000 I-3.302158 J7.386092
G01 X98.601389 Y183.652515 Z34.000000
G00 Z18.000000

(End cutting path id: path12254)


(Start cutting path id: path12254)
(Change tool to Lathe cutter)

G00 Z18.000000
G00 X132.423959 Y183.537862

G01 Z34.000000 F5000.000000(Penetrate)
G02 X132.446641 Y183.518549 Z34.000000 I-0.095781 J-0.135465 F5000.000000
G02 X132.573890 Y183.370293 Z34.000000 I-1.053544 J-1.032994
G02 X132.679600 Y183.215673 Z34.000000 I-1.728741 J-1.295346
G02 X132.723820 Y183.123349 Z34.000000 I-0.397237 J-0.247016
G02 X132.742687 Y183.030953 Z34.000000 I-0.329228 J-0.115351
G02 X132.732626 Y182.885224 Z34.000000 I-0.542352 J-0.035767
G02 X132.636702 Y182.589250 Z34.000000 I-1.390122 J0.286999
G02 X132.168181 Y181.606404 Z34.000000 I-22.976986 J10.350000
G03 X130.497943 Y177.732415 Z34.000000 I31.749439 J-15.985557
G03 X128.869709 Y172.487098 Z34.000000 I55.304622 J-20.042852
G02 X128.506919 Y171.116702 Z34.000000 I-152.028255 J39.513780
G02 X128.252348 Y170.211682 Z34.000000 I-41.666670 J11.232006
G02 X128.229583 Y170.147712 Z34.000000 I-0.571869 J0.167473
G03 X128.208251 Y170.088210 Z34.000000 I0.533172 J-0.224727
G03 X128.236738 Y170.333168 Z34.000000 I-22.532753 J2.744600
G02 X128.278806 Y170.643835 Z34.000000 I6.425423 J-0.711896
G02 X128.528167 Y172.000008 Z34.000000 I29.601151 J-4.741774
G02 X128.949084 Y173.862932 Z34.000000 I53.819911 J-11.181292
G02 X130.040940 Y177.607086 Z34.000000 I42.910755 J-10.482188
G02 X131.780126 Y182.188487 Z34.000000 I66.468406 J-22.611841
G02 X132.282289 Y183.339243 Z34.000000 I42.098228 J-17.685748
G02 X132.397487 Y183.520224 Z34.000000 I0.692259 J-0.313485
G02 X132.420191 Y183.535934 Z34.000000 I0.041245 J-0.035345
G01 X132.423931 Y183.537862 Z34.000000
G01 X132.423959 Y183.537862 Z34.000000
G00 Z18.000000

(End cutting path id: path12254)


(Start cutting path id: path12254)
(Change tool to Lathe cutter)

G00 Z18.000000
G00 X134.849306 Y183.529057

G01 Z34.000000 F5000.000000(Penetrate)
G03 X134.803995 Y183.519788 Z34.000000 I0.021523 J-0.220594 F5000.000000
G03 X134.752292 Y183.484960 Z34.000000 I0.033261 J-0.105167
G03 X134.714176 Y183.382778 Z34.000000 I0.127936 J-0.105923
G03 X134.717015 Y183.352668 Z34.000000 I0.130032 J-0.002929
G03 X134.726877 Y183.324923 Z34.000000 I0.110687 J0.023719
G02 X134.734654 Y183.308571 Z34.000000 I-0.287752 J-0.146876
G03 X134.749531 Y183.276290 Z34.000000 I1.012575 J0.447111
G03 X134.769931 Y183.238015 Z34.000000 I0.468150 J0.224945
G03 X134.821918 Y183.155942 Z34.000000 I1.251191 J0.735028
G02 X134.919862 Y183.008710 Z34.000000 I-6.580651 J-4.483857
G03 X135.041743 Y182.823612 Z34.000000 I14.520217 J9.428424
G03 X135.140348 Y182.691210 Z34.000000 I1.335631 J0.891778
G03 X135.193414 Y182.629987 Z34.000000 I1.381513 J1.143854
G03 X135.237362 Y182.585376 Z34.000000 I0.563476 J0.511147
G03 X135.261739 Y182.567511 Z34.000000 I0.086558 J0.092545
G02 X135.290279 Y182.550099 Z34.000000 I-0.234911 J-0.417116
G03 X135.315659 Y182.534300 Z34.000000 I0.319145 J0.484416
G03 X135.387292 Y182.514821 Z34.000000 I0.071633 J0.121975
G03 X135.439170 Y182.519922 Z34.000000 I-0.000000 J0.266369
G03 X135.501945 Y182.541265 Z34.000000 I-0.049158 J0.247568
G03 X135.559186 Y182.582666 Z34.000000 I-0.094396 J0.190781
G03 X135.598959 Y182.647099 Z34.000000 I-0.120956 J0.119156
G03 X135.600833 Y182.778511 Z34.000000 I-0.201469 J0.068592
G03 X135.563681 Y182.867585 Z34.000000 I-0.483441 J-0.149354
G03 X135.452033 Y183.030010 Z34.000000 I-0.780100 J-0.416643
G03 X135.210904 Y183.282099 Z34.000000 I-2.674651 J-2.317004
G03 X135.086605 Y183.391376 Z34.000000 I-1.533008 J-1.618399
G02 X135.016876 Y183.449668 Z34.000000 I2.344935 J2.875886
G02 X134.985014 Y183.478792 Z34.000000 I0.441632 J0.515132
G03 X134.955140 Y183.502585 Z34.000000 I-0.133735 J-0.137270
G02 X134.941215 Y183.512750 Z34.000000 I0.081169 J0.125811
G03 X134.911042 Y183.529029 Z34.000000 I-0.056647 J-0.068891
G03 X134.891549 Y183.531714 Z34.000000 I-0.017731 J-0.056618
G03 X134.849306 Y183.529029 Z34.000000 I0.018615 J-0.626417
G01 X134.849306 Y183.529057 Z34.000000
G00 Z18.000000

(End cutting path id: path12254)


(Start cutting path id: path12254)
(Change tool to Lathe cutter)

G00 Z18.000000
G00 X90.875556 Y183.379098

G01 Z34.000000 F5000.000000(Penetrate)
G02 X90.944502 Y183.380768 Z34.000000 I0.047433 J-0.534384 F5000.000000
G03 X90.990209 Y183.379098 Z34.000000 I0.254757 J6.348012
G03 X90.822020 Y183.363424 Z34.000000 I0.234506 J-3.426387
G03 X90.610973 Y183.335001 Z34.000000 I0.763895 J-6.469973
G03 X90.760158 Y183.361933 Z34.000000 I-0.406113 J2.676302
G02 X90.875556 Y183.379098 Z34.000000 I0.203159 J-0.969286
G01 X90.875556 Y183.379098 Z34.000000
G00 Z18.000000

(End cutting path id: path12254)


(Start cutting path id: path12254)
(Change tool to Lathe cutter)

G00 Z18.000000
G00 X97.252014 Y183.202709

G01 Z34.000000 F5000.000000(Penetrate)
G02 X96.993876 Y183.181250 Z34.000000 I-0.524313 J4.743692 F5000.000000
G02 X96.714028 Y183.167432 Z34.000000 I-1.208953 J21.643087
G02 X97.005096 Y183.180472 Z34.000000 I0.825129 J-15.161857
G03 X97.252014 Y183.202709 Z34.000000 I-0.079837 J2.268509
G01 X97.252014 Y183.202709 Z34.000000
G00 Z18.000000

(End cutting path id: path12254)


(Start cutting path id: path12254)
(Change tool to Lathe cutter)

G00 Z18.000000
G00 X132.988404 Y183.123334

G01 Z34.000000 F5000.000000(Penetrate)
G01 X133.067779 Y183.043959 Z34.000000 F5000.000000
G01 X133.006042 Y182.911668 Z34.000000
G03 X133.004504 Y183.023240 Z34.000000 I-0.482660 J0.049141
G03 X132.988404 Y183.123334 Z34.000000 I-1.651337 J-0.214279
G01 X132.988404 Y183.123334 Z34.000000
G00 Z18.000000

(End cutting path id: path12254)


(Start cutting path id: path12254)
(Change tool to Lathe cutter)

G00 Z18.000000
G00 X134.646459 Y183.043959

G01 Z34.000000 F5000.000000(Penetrate)
G03 X134.600996 Y183.031284 Z34.000000 I0.013189 J-0.135173 F5000.000000
G03 X134.549445 Y182.991043 Z34.000000 I0.065808 J-0.137444
G03 X134.512002 Y182.895674 Z34.000000 I0.126423 J-0.104671
G03 X134.514167 Y182.867571 Z34.000000 I0.105624 J-0.005996
G03 X134.524030 Y182.839825 Z34.000000 I0.110687 J0.023719
G02 X134.531806 Y182.823473 Z34.000000 I-0.287752 J-0.146876
G02 X134.546580 Y182.787169 Z34.000000 I-0.611348 J-0.269946
G03 X134.567084 Y182.744098 Z34.000000 I0.256730 J0.095800
G03 X134.619102 Y182.665173 Z34.000000 I0.790385 J0.464322
G02 X134.717015 Y182.523612 Z34.000000 I-2.374007 J-1.746656
G03 X134.838896 Y182.338513 Z34.000000 I14.501021 J9.415740
G03 X134.937501 Y182.206112 Z34.000000 I1.335698 J0.891835
G03 X134.990567 Y182.144890 Z34.000000 I1.381513 J1.143854
G03 X135.034515 Y182.100279 Z34.000000 I0.563476 J0.511147
G03 X135.058824 Y182.078130 Z34.000000 I0.861121 J0.920684
G03 X135.087431 Y182.056182 Z34.000000 I0.167597 J0.188831
G03 X135.112879 Y182.043077 Z34.000000 I0.073728 J0.111908
G03 X135.184445 Y182.029737 Z34.000000 I0.071567 J0.185308
G03 X135.236297 Y182.031005 Z34.000000 I0.000000 J1.061510
G03 X135.299098 Y182.047376 Z34.000000 I-0.007744 J0.158343
G03 X135.356824 Y182.092583 Z34.000000 I-0.079902 J0.161488
G03 X135.396112 Y182.162029 Z34.000000 I-0.164192 J0.138725
G03 X135.397125 Y182.288189 Z34.000000 I-0.189765 J0.064608
G03 X135.360834 Y182.373696 Z34.000000 I-0.495709 J-0.159934
G03 X135.249186 Y182.536121 Z34.000000 I-0.780100 J-0.416643
G03 X135.008056 Y182.788210 Z34.000000 I-2.674651 J-2.317004
G03 X134.883780 Y182.903206 Z34.000000 I-4.986112 J-5.263845
G03 X134.814029 Y182.964599 Z34.000000 I-2.358932 J-2.609780
G02 X134.782167 Y182.993723 Z34.000000 I0.441632 J0.515132
G03 X134.752292 Y183.017515 Z34.000000 I-0.133735 J-0.137270
G03 X134.738312 Y183.024638 Z34.000000 I-0.041878 J-0.064911
G03 X134.708195 Y183.035154 Z34.000000 I-0.171642 J-0.443198
G03 X134.688705 Y183.040689 Z34.000000 I-0.112909 J-0.360530
G03 X134.646459 Y183.043959 Z34.000000 I-0.030504 J-0.119530
G01 X134.646459 Y183.043959 Z34.000000
G00 Z18.000000

(End cutting path id: path12254)


(Start cutting path id: path12254)
(Change tool to Lathe cutter)

G00 Z18.000000
G00 X92.269028 Y182.946946

G01 Z34.000000 F5000.000000(Penetrate)
G03 X92.140762 Y182.754850 Z34.000000 I8.782343 J-6.003029 F5000.000000
G02 X91.977987 Y182.514793 Z34.000000 I-6.756566 J4.406203
G02 X91.864044 Y182.358220 Z34.000000 I-5.184974 J3.653518
G03 X91.739862 Y182.188473 Z34.000000 I6.590482 J-4.951721
G02 X91.738532 Y182.206020 Z34.000000 I0.260396 J0.028563
G03 X91.731056 Y182.232570 Z34.000000 I-0.059833 J-0.002518
G03 X91.667149 Y182.295028 Z34.000000 I-0.137035 J-0.076293
G03 X91.598765 Y182.311945 Z34.000000 I-0.068384 J-0.129750
G03 X91.409675 Y182.267493 Z34.000000 I-0.000000 J-0.424395
G03 X91.184251 Y182.135557 Z34.000000 I0.859706 J-1.727427
G03 X91.125134 Y182.086242 Z34.000000 I0.221323 J-0.325408
G02 X91.060779 Y182.029723 Z34.000000 I-0.421019 J0.414495
G03 X91.176606 Y182.148229 Z34.000000 I-2.185997 J2.252455
G02 X91.263626 Y182.232570 Z34.000000 I0.831666 J-0.771012
G02 X91.353056 Y182.307538 Z34.000000 I2.051522 J-2.356475
G02 X91.395917 Y182.338404 Z34.000000 I0.302434 J-0.374779
G03 X91.422853 Y182.324476 Z34.000000 I0.325193 J0.595884
G03 X91.457654 Y182.311960 Z34.000000 I0.074251 J0.151813
G03 X91.494894 Y182.308651 Z34.000000 I0.029824 J0.124448
G03 X91.554667 Y182.320765 Z34.000000 I-0.012489 J0.215150
G03 X91.615537 Y182.357885 Z34.000000 I-0.058525 J0.164438
G03 X91.651681 Y182.408959 Z34.000000 I-0.106852 J0.113943
G03 X91.663668 Y182.504638 Z34.000000 I-0.154565 J0.067954
G03 X91.651681 Y182.558890 Z34.000000 I-0.522144 J-0.086917
G03 X91.630914 Y182.615926 Z34.000000 I-0.369570 J-0.102266
G03 X91.598765 Y182.682362 Z34.000000 I-1.507277 J-0.688391
G02 X91.580622 Y182.743697 Z34.000000 I0.154413 J0.079025
G01 X91.581126 Y182.752918 Z34.000000
G01 X91.584695 Y182.760024 Z34.000000
G02 X91.607570 Y182.779362 Z34.000000 I0.075640 J-0.066276
G02 X91.677559 Y182.803547 Z34.000000 I0.089252 J-0.144923
G02 X91.969167 Y182.797001 Z34.000000 I0.121862 J-1.069811
G03 X92.082502 Y182.809172 Z34.000000 I0.034271 J0.214630
G03 X92.145556 Y182.841098 Z34.000000 I-0.133575 J0.342044
G03 X92.205608 Y182.886889 Z34.000000 I-0.233617 J0.368647
G03 X92.269028 Y182.946931 Z34.000000 I-1.472609 J1.618969
G01 X92.269028 Y182.946946 Z34.000000
G00 Z18.000000

(End cutting path id: path12254)


(Start cutting path id: path12254)
(Change tool to Lathe cutter)

G00 Z18.000000
G00 X85.804375 Y182.620626

G01 Z34.000000 F5000.000000(Penetrate)
G03 X85.327069 Y181.938328 Z34.000000 I11.562617 J-8.596808 F5000.000000
G02 X84.393264 Y180.521598 Z34.000000 I-573.567317 J377.037625
G01 X84.296250 Y180.583334 Z34.000000
G01 X84.243334 Y180.627432 Z34.000000
G03 X84.807770 Y181.351497 Z34.000000 I-344.928994 J269.466801
G02 X85.425139 Y182.126737 Z34.000000 I34.225672 J-26.622505
G03 X85.632224 Y182.393705 Z34.000000 I-5.412037 J4.411877
G02 X85.804375 Y182.620626 Z34.000000 I8.514147 J-6.280405
G01 X85.804375 Y182.620626 Z34.000000
G00 Z18.000000

(End cutting path id: path12254)


(Start cutting path id: path12254)
(Change tool to Lathe cutter)

G00 Z18.000000
G00 X134.390695 Y182.303126

G01 Z34.000000 F5000.000000(Penetrate)
G03 X134.319086 Y182.296666 Z34.000000 I0.007976 J-0.488513 F5000.000000
G03 X134.231945 Y182.259029 Z34.000000 I0.031990 J-0.193762
G03 X134.164515 Y182.164321 Z34.000000 I0.118495 J-0.155726
G03 X134.161390 Y182.065001 Z34.000000 I0.167527 J-0.054980
G03 X134.236851 Y181.926634 Z34.000000 I0.314360 J0.081681
G03 X134.364237 Y181.809237 Z34.000000 I0.779342 J0.717848
G03 X134.514620 Y181.697855 Z34.000000 I2.278002 J2.918428
G03 X134.611181 Y181.632848 Z34.000000 I1.697922 J2.417905
G03 X134.692047 Y181.583624 Z34.000000 I0.986199 J1.529102
G03 X134.805209 Y181.553473 Z34.000000 I0.113162 J0.197283
G03 X134.845854 Y181.557424 Z34.000000 I-0.000000 J0.211030
G03 X134.902223 Y181.579917 Z34.000000 I-0.031628 J0.161142
G03 X134.943377 Y181.623097 Z34.000000 I-0.066187 J0.104284
G03 X134.963959 Y181.668112 Z34.000000 I-0.242902 J0.138274
G03 X134.971576 Y181.742534 Z34.000000 I-0.149386 J0.052889
G03 X134.963959 Y181.782765 Z34.000000 I-0.399413 J-0.054780
G03 X134.936517 Y181.870018 Z34.000000 I-0.665721 J-0.161438
G03 X134.884584 Y181.985612 Z34.000000 I-1.164728 J-0.453810
G03 X134.680544 Y182.216443 Z34.000000 I-0.552309 J-0.282612
G03 X134.390695 Y182.303112 Z34.000000 I-0.282350 J-0.416261
G01 X134.390695 Y182.303126 Z34.000000
G00 Z18.000000

(End cutting path id: path12254)


(Start cutting path id: path12254)
(Change tool to Lathe cutter)

G00 Z18.000000
G00 X91.263612 Y181.826876

G01 Z34.000000 F5000.000000(Penetrate)
G02 X91.156713 Y181.666773 Z34.000000 I-4.965273 J3.199510 F5000.000000
G02 X90.999028 Y181.438820 Z34.000000 I-722.868349 J499.870669
G02 X90.460577 Y180.680580 Z34.000000 I-31.418129 J21.740733
G02 X89.587917 Y179.507362 Z34.000000 I-59.881415 J43.629677
G03 X86.207142 Y174.818400 Z34.000000 I93.160947 J-70.732978
G03 X85.486875 Y173.501320 Z34.000000 I6.233852 J-4.264567
G02 X85.090179 Y172.772724 Z34.000000 I-3.915564 J1.659604
G02 X84.746042 Y172.390070 Z34.000000 I-1.568382 J1.064436
G02 X84.499609 Y172.199159 Z34.000000 I-2.339754 J2.765712
G02 X84.357987 Y172.107848 Z34.000000 I-1.121982 J1.584696
G02 X84.257792 Y172.061895 Z34.000000 I-0.280792 J0.480022
G02 X84.234514 Y172.054932 Z34.000000 I-0.098494 J0.286858
G02 X84.241544 Y172.126518 Z34.000000 I0.572897 J-0.020120
G02 X84.287431 Y172.310695 Z34.000000 I1.123160 J-0.182024
G02 X84.637002 Y173.093533 Z34.000000 I4.400797 J-1.495681
G02 X86.042501 Y175.406320 Z34.000000 I34.969992 J-19.668064
G02 X87.838393 Y177.968291 Z34.000000 I41.441366 J-27.139179
G02 X89.446806 Y179.983612 Z34.000000 I33.715452 J-25.258563
G02 X90.274103 Y180.920648 Z34.000000 I24.948647 J-21.193112
G02 X90.840278 Y181.491737 Z34.000000 I7.656944 J-7.024868
G02 X91.086611 Y181.696416 Z34.000000 I1.894528 J-2.029508
G02 X91.263612 Y181.826876 Z34.000000 I153.517317 J-208.098198
G01 X91.263612 Y181.826876 Z34.000000
G00 Z18.000000

(End cutting path id: path12254)


(Start cutting path id: path12254)
(Change tool to Lathe cutter)

G00 Z18.000000
G00 X133.685140 Y181.615209

G01 Z34.000000 F5000.000000(Penetrate)
G03 X133.618498 Y181.606457 Z34.000000 I-0.008991 J-0.189621 F5000.000000
G03 X133.579306 Y181.588765 Z34.000000 I0.056674 J-0.177806
G03 X133.511248 Y181.536371 Z34.000000 I0.190885 J-0.318349
G03 X133.455834 Y181.474112 Z34.000000 I0.407205 J-0.418232
G03 X133.358817 Y181.327974 Z34.000000 I0.996922 J-0.767099
G03 X133.217709 Y181.068418 Z34.000000 I7.009796 J-3.979022
G03 X132.956079 Y180.526992 Z34.000000 I9.046744 J-4.705530
G03 X132.565070 Y179.613210 Z34.000000 I27.793571 J-12.433459
G03 X131.817622 Y177.657454 Z34.000000 I42.222805 J-17.257378
G03 X131.109862 Y175.485710 Z34.000000 I39.770170 J-14.162080
G03 X130.615445 Y173.687535 Z34.000000 I45.478364 J-13.471551
G03 X129.751667 Y170.185223 Z34.000000 I254.876444 J-64.718047
G03 X129.377759 Y168.608702 Z34.000000 I379.536067 J-90.848360
G03 X129.116667 Y167.460015 Z34.000000 I78.586878 J-18.466467
G03 X128.995381 Y166.895217 Z34.000000 I60.387218 J-13.263152
G03 X128.922640 Y166.533973 Z34.000000 I22.119336 J-4.641978
G03 X128.862738 Y166.199718 Z34.000000 I12.604032 J-2.431251
G03 X128.852084 Y166.057723 Z34.000000 I0.788416 J-0.130552
G01 X128.852084 Y165.916612 Z34.000000
G01 X128.878528 Y165.916612 Z34.000000
G01 X128.878316 Y165.903442 Z34.000000
G01 X128.878528 Y165.890168 Z34.000000
G03 X128.923206 Y165.816353 Z34.000000 I0.238226 J0.093761
G03 X129.010820 Y165.757876 Z34.000000 I0.150006 J0.129876
G03 X129.113593 Y165.751714 Z34.000000 I0.062974 J0.190187
G03 X129.187209 Y165.775515 Z34.000000 I-0.068321 J0.337066
G03 X129.250420 Y165.813943 Z34.000000 I-0.126672 J0.279574
G03 X129.310681 Y165.863710 Z34.000000 I-1.038160 J1.318431
G03 X129.527443 Y166.093670 Z34.000000 I-1.022519 J1.180972
G03 X129.857487 Y166.569265 Z34.000000 I-4.797998 J3.681934
G03 X130.465877 Y167.668810 Z34.000000 I-9.980478 J6.240396
G03 X131.030473 Y169.047529 Z34.000000 I-10.593249 J5.142978
G02 X131.613188 Y170.752930 Z34.000000 I220.276722 J-74.313747
G02 X133.217695 Y175.353432 Z34.000000 I939.959763 J-325.247566
G03 X134.257522 Y178.374713 Z34.000000 I-229.938062 J80.826827
G03 X134.540612 Y179.331001 Z34.000000 I-12.738883 J4.291128
G03 X134.618302 Y179.715976 Z34.000000 I-3.690351 J0.945067
G03 X134.637626 Y179.939543 Z34.000000 I-1.810246 J0.269080
G01 X134.655264 Y180.001279 Z34.000000
G01 X134.681709 Y180.080654 Z34.000000
G01 X134.637611 Y180.133571 Z34.000000
G03 X134.577552 Y180.353554 Z34.000000 I-0.957874 J-0.143326
G03 X134.487681 Y180.512807 Z34.000000 I-0.657505 J-0.266066
G02 X134.262793 Y180.900708 Z34.000000 I1.528522 J1.145310
G02 X134.231917 Y180.997876 Z34.000000 I0.468361 J0.202315
G02 X134.256120 Y180.990802 Z34.000000 I-0.035829 J-0.167524
G02 X134.302473 Y180.971432 Z34.000000 I-0.232865 J-0.622389
G03 X134.386799 Y180.937747 Z34.000000 I0.353903 J0.763542
G03 X134.461223 Y180.918516 Z34.000000 I0.168326 J0.497797
G03 X134.532524 Y180.914313 Z34.000000 I0.053003 J0.292283
G03 X134.628792 Y180.944960 Z34.000000 I-0.012749 J0.206570
G03 X134.702657 Y181.032477 Z34.000000 I-0.097348 J0.157092
G03 X134.716986 Y181.121349 Z34.000000 I-0.185991 J0.075580
G03 X134.702288 Y181.199543 Z34.000000 I-0.333513 J-0.022212
G03 X134.672889 Y181.271279 Z34.000000 I-0.441507 J-0.139046
G03 X134.422252 Y181.490110 Z34.000000 I-0.399160 J-0.204228
G03 X134.090806 Y181.474126 Z34.000000 I-0.146047 J-0.416008
G02 X133.954488 Y181.461364 Z34.000000 I-0.086161 J0.185894
